; generated by PrusaSlicer 2.7.1+MacOS-arm64 on 2024-03-02 at 09:36:07 UTC


;
;

;
;
; 

; external perimeters extrusion width = 0.50mm
; perimeters extrusion width = 0.52mm
; infill extrusion width = 0.60mm
; solid infill extrusion width = 0.50mm
; top infill extrusion width = 0.50mm
; first layer extrusion width = 0.52mm

M190 S80 ; set bed temperature and wait for it to be reached
M104 S210 ; set temperature
;TYPE:Custom
START_PRINT BED_TEMP=80 HOTEND_TEMP=210 FILAMENT_TYPE=PLA EXTRUSION_MULTIPLIER=0.95
M109 S210 ; set temperature and wait for it to be reached
G21 ; set units to millimeters
G90 ; use absolute coordinates
M82 ; use absolute distances for extrusion
G92 E0
; Filament gcode
M107
;LAYER_CHANGE
;Z:0.16
;HEIGHT:0.16
G1 Z.16 F7800
G1 E-.5 F240
G92 E0
G1 X82.26 Y97.046 F7800
G1 E.5 F240
;TYPE:Perimeter
;WIDTH:0.519999
G1 F1800
G1 X81.956 Y96.741 E.51322
G1 X81.438 Y96.405 E.53217
G1 X80.864 Y96.21 E.55078
G1 X80.039 Y96.13 E.57622
G1 X79.346 Y96.207 E.59762
G1 X78.71 Y96.419 E.6182
G1 X78.086 Y96.803 E.64069
G1 X77.682 Y97.192 E.6579
G1 X77.386 Y97.622 E.67392
G1 X77.387 Y95.256 E.74654
G1 X77.447 Y94.782 E.7612
G1 X77.619 Y94.458 E.77246
G1 X77.798 Y94.291 E.77997
G1 X78.002 Y94.197 E.78686
G1 X78.368 Y94.101 E.79847
G1 X101.7 Y92.687 E1.51587
G1 X102.573 Y92.662 E1.54267
G1 X103.589 Y92.699 E1.57387
G1 X104.369 Y92.778 E1.59793
G1 X105.152 Y92.903 E1.62227
G1 X106.201 Y93.142 E1.65529
G1 X106.96 Y93.367 E1.67959
G1 X107.981 Y93.746 E1.71301
G1 X108.791 Y94.115 E1.74033
G1 X109.667 Y94.586 E1.77086
G1 X110.591 Y95.184 E1.80464
G1 X111.266 Y95.674 E1.83024
G1 X112.019 Y96.308 E1.86045
G1 X112.649 Y96.915 E1.8873
;WIDTH:0.563329
G1 X113.116 Y97.456 E1.91119
;WIDTH:0.606694
G1 X113.164 Y97.546 E1.91488
;WIDTH:0.650059
G1 X113.211 Y97.636 E1.91883
;WIDTH:0.693424
G1 X113.259 Y97.727 E1.92312
;WIDTH:0.736789
G1 X113.306 Y97.817 E1.92763
;WIDTH:0.780154
G1 X113.354 Y97.908 E1.93248
G1 X113.272 Y97.88 E1.93656
;WIDTH:0.740545
G1 X113.191 Y97.852 E1.94038
;WIDTH:0.700936
G1 X113.109 Y97.824 E1.94403
;WIDTH:0.661327
G1 X113.027 Y97.797 E1.94745
;WIDTH:0.621717
G1 X112.861 Y97.778 E1.95365
;WIDTH:0.587811
G1 X112.694 Y97.758 E1.95953
;WIDTH:0.553905
G1 X112.527 Y97.739 E1.96505
;WIDTH:0.519999
G1 X110.361 Y97.741 E2.03153
G1 X109.853 Y97.81 E2.04726
G1 X109.597 Y97.927 E2.0559
G1 X109.256 Y98.204 E2.06938
G1 X108.971 Y97.925 E2.08162
G1 X108.656 Y97.793 E2.0921
G1 X108.203 Y97.754 E2.10605
G1 X108.015 Y97.807 E2.11204
G1 X107.636 Y98.06 E2.12603
G1 X107.429 Y98.294 E2.13562
G1 X107.172 Y98.752 E2.15174
G1 X107.035 Y99.113 E2.16359
G1 X106.923 Y98.724 E2.17601
G1 X106.701 Y98.305 E2.19056
G1 X106.486 Y98.048 E2.20084
G1 X106 Y97.798 E2.21761
G1 X105.63 Y97.74 E2.2291
G1 X105.2 Y97.808 E2.24246
G1 X104.926 Y97.945 E2.25186
G1 X104.654 Y98.248 E2.26436
G1 X104.489 Y98.048 E2.27232
G1 X104.109 Y97.807 E2.28613
G1 X103.728 Y97.742 E2.29799
G1 X103.453 Y97.773 E2.30648
G1 X103.097 Y97.932 E2.31845
G1 X102.666 Y98.346 E2.33679
G1 X102.48 Y98.11 E2.34601
G1 X102.287 Y97.941 E2.35388
G1 X101.978 Y97.798 E2.36433
G1 X101.714 Y97.738 E2.37264
G1 X101.226 Y97.818 E2.38782
G1 X100.998 Y97.909 E2.39535
G1 X100.636 Y98.227 E2.41014
G1 X100.453 Y98.622 E2.4235
G1 X100.439 Y99.064 E2.43707
G1 X100.492 Y99.3 E2.44449
G1 X100.691 Y99.77 E2.46015
G1 X101.265 Y100.765 E2.4954
G1 X101.053 Y101.07 E2.5068
G1 X100.788 Y101.535 E2.52323
G1 X100.444 Y101.075 E2.54086
G1 X100.025 Y100.798 E2.55628
G1 X99.775 Y100.702 E2.5645
G1 X99.198 Y100.623 E2.58237
G1 X98.805 Y100.701 E2.59467
G1 X98.853 Y100.311 E2.60673
G1 X98.848 Y99.63 E2.62763
G1 X98.783 Y99.031 E2.64612
G1 X98.641 Y98.461 E2.66415
G1 X98.451 Y97.955 E2.68074
G1 X98.144 Y97.453 E2.6988
G1 X97.798 Y97.069 E2.71466
G1 X97.352 Y96.736 E2.73174
G1 X96.875 Y96.519 E2.74782
G1 X96.346 Y96.387 E2.76455
G1 X95.838 Y96.325 E2.78026
G1 X94.252 Y96.289 E2.82895
G1 X93.9 Y96.32 E2.8398
G1 X93.408 Y96.489 E2.85577
G1 X93.052 Y96.808 E2.87044
;WIDTH:0.569075
G1 X92.926 Y97.102 E2.88125
;WIDTH:0.618151
G1 X92.8 Y97.397 E2.89308
;WIDTH:0.66798
G1 X92.782 Y97.543 E2.89897
;WIDTH:0.717808
G1 X92.764 Y97.69 E2.90537
G1 X92.708 Y97.588 E2.9104
;WIDTH:0.676935
G1 X92.653 Y97.485 E2.91514
;WIDTH:0.636062
G1 X92.597 Y97.383 E2.91956
;WIDTH:0.595189
G1 X92.542 Y97.281 E2.92367
;WIDTH:0.554316
G1 X92.17 Y96.805 E2.94352
;WIDTH:0.519999
G1 X91.976 Y96.628 E2.95158
G1 X91.41 Y96.313 E2.97146
G1 X90.774 Y96.159 E2.99154
G1 X90.016 Y96.135 E3.01482
G1 X89.304 Y96.259 E3.037
G1 X88.689 Y96.525 E3.05756
G1 X88.265 Y96.894 E3.07481
G1 X88.039 Y96.6 E3.08619
G1 X87.78 Y96.424 E3.0958
G1 X87.275 Y96.299 E3.11177
G1 X84.002 Y96.31 E3.21222
G1 X83.412 Y96.27 E3.23037
G1 X83.193 Y96.288 E3.23711
G1 X82.746 Y96.436 E3.25156
G1 X82.552 Y96.582 E3.25901
G1 X82.337 Y96.844 E3.26941
G1 X82.292 Y96.962 E3.27329
G1 E2.77329 F240
G92 E0
G1 X82.292 Y96.962 F7800
G1 X112.435 Y101.356
G1 E.5 F240
G1 F1800
G1 X113.244 Y100.214 E.54295
G1 X113.562 Y99.662 E.5625
G1 X113.697 Y99.154 E.57863
;WIDTH:0.56628
G1 X113.684 Y98.854 E.58872
;WIDTH:0.612561
G1 X113.671 Y98.554 E.59969
;WIDTH:0.650775
G1 X113.65 Y98.462 E.60337
;WIDTH:0.688989
G1 X113.629 Y98.369 E.60731
;WIDTH:0.727203
G1 X113.608 Y98.277 E.61144
;WIDTH:0.765416
G1 X113.587 Y98.185 E.6158
G1 X113.66 Y98.248 E.62025
;WIDTH:0.727203
G1 X113.732 Y98.311 E.62444
;WIDTH:0.688989
G1 X113.804 Y98.374 E.6284
;WIDTH:0.650775
G1 X113.876 Y98.437 E.63213
;WIDTH:0.612561
G1 X114.049 Y98.643 E.64196
;WIDTH:0.56628
G1 X114.223 Y98.848 E.651
;WIDTH:0.519999
G1 X114.803 Y99.8 E.68521
G1 X114.838 Y100.044 E.69278
G1 X114.832 Y100.104 E.69463
G1 X114.731 Y100.342 E.70257
G1 X114.38 Y100.916 E.72322
G1 X114.079 Y101.367 E.73986
G1 X113.609 Y101.992 E.76386
G1 X113.544 Y101.863 E.76829
G1 X113.211 Y101.557 E.78217
G1 X112.899 Y101.431 E.7925
G1 X112.524 Y101.37 E.80416
G1 X113.244 Y103.057 F7800
;TYPE:External perimeter
;WIDTH:0.676398
G1 F1800
G1 X113.024 Y103.279 E.81684
G1 E.31684 F240
G92 E0
G1 X113.024 Y103.279 F7800
G1 X100.669 Y102.585
G1 E.5 F240
;WIDTH:0.894304
G1 F1800
G1 X100.711 Y102.376 E.51159
G1 X100.669 Y102.585 E.52318
G1 E.02318 F240
G92 E0
G1 X100.669 Y102.585 F7800
G1 X98.039 Y101.822
G1 E.5 F240
;WIDTH:0.704986
G1 F1800
G1 X98.169 Y101.603 E.51079
G1 E.01079 F240
G92 E0
G1 X98.169 Y101.603 F7800
G1 X81.713 Y100.879
G1 E.5 F240
;TYPE:Perimeter
;WIDTH:0.519999
G1 F1800
G1 X81.556 Y100.82 E.50515
G1 X80.965 Y100.837 E.5233
G1 X80.62 Y100.998 E.53498
G1 X80.343 Y101.242 E.54631
G1 X80.18 Y101.296 E.55158
G1 X79.839 Y101.277 E.56206
G1 X79.591 Y101.131 E.57089
G1 X79.438 Y100.88 E.57991
G1 X79.328 Y100.343 E.59673
G1 X79.331 Y99.635 E.61846
G1 X79.427 Y99.111 E.63481
G1 X79.526 Y98.885 E.64238
G1 X79.779 Y98.678 E.65241
G1 X80.115 Y98.633 E.66281
G1 X80.79 Y99.011 E.68655
G1 X81.259 Y99.123 E.70135
G1 X81.54 Y99.134 E.70998
G1 X81.917 Y99.012 E.72214
G1 X82.28 Y98.7 E.73683
G1 X82.466 Y98.405 E.74753
G1 X82.705 Y98.59 E.75681
G1 X82.975 Y98.734 E.7662
G1 X83.401 Y98.785 E.77937
G1 X84.036 Y98.719 E.79896
G1 X84.051 Y101.536 E.88542
G1 X84.025 Y102.673 E.92032
G1 X84.169 Y103.097 E.93406
G1 X84.39 Y103.357 E.94453
G1 X84.805 Y103.585 E.95906
G1 X85.159 Y103.655 E.97014
G1 X85.522 Y103.62 E.98133
G1 X85.9 Y103.468 E.99383
G1 X86.201 Y103.194 E1.00632
G1 X86.355 Y102.912 E1.01618
G1 X86.488 Y102.344 E1.03408
G1 X86.472 Y98.743 E1.1446
G1 X86.965 Y98.751 E1.15973
G1 X87.562 Y98.658 E1.17827
G1 X87.876 Y98.52 E1.1888
G1 X88.141 Y98.271 E1.19996
G1 X88.32 Y98.563 E1.21047
G1 X88.565 Y98.771 E1.22033
G1 X88.911 Y98.93 E1.23202
G1 X88.752 Y99.182 E1.24116
G1 X88.691 Y99.395 E1.24796
G1 X88.654 Y99.963 E1.26543
G1 X88.783 Y100.322 E1.27714
;WIDTH:0.560196
G1 X88.95 Y100.52 E1.28575
;WIDTH:0.600393
G1 X89.117 Y100.719 E1.29504
;WIDTH:0.645443
G1 X89.235 Y100.792 E1.3004
;WIDTH:0.690492
G1 X89.352 Y100.866 E1.30614
G1 X89.215 Y100.888 E1.31189
;WIDTH:0.645443
G1 X89.079 Y100.911 E1.31722
;WIDTH:0.600393
G1 X88.876 Y100.979 E1.32488
;WIDTH:0.560196
G1 X88.673 Y101.047 E1.33199
;WIDTH:0.519999
G1 X88.352 Y101.248 E1.34361
G1 X88.087 Y101.604 E1.35723
G1 X87.986 Y101.903 E1.36692
G1 X87.96 Y102.277 E1.37843
G1 X88.081 Y102.74 E1.39312
G1 X88.326 Y103.13 E1.40726
G1 X88.737 Y103.453 E1.4233
G1 X88.974 Y103.574 E1.43147
G1 X89.691 Y103.767 E1.45426
G1 X90.313 Y103.8 E1.47338
G1 X90.781 Y103.762 E1.48779
G1 X91.271 Y103.637 E1.50331
G1 X91.768 Y103.394 E1.52029
G1 X92.163 Y103.079 E1.5358
G1 X92.476 Y102.702 E1.55084
G1 X92.679 Y102.361 E1.56302
;WIDTH:0.521474
G1 X92.877 Y101.818 E1.58081
G1 X92.867 Y102.241 E1.59384
;WIDTH:0.519999
G1 X92.953 Y102.813 E1.61159
G1 X93.1 Y103.139 E1.62257
G1 X93.375 Y103.448 E1.63527
G1 X93.713 Y103.607 E1.64673
G1 X94.043 Y103.661 E1.65699
G1 X94.639 Y103.623 E1.67532
G1 X95.383 Y103.629 E1.69815
G1 X95.967 Y103.594 E1.71611
G1 X96.596 Y103.483 E1.73571
G1 X97.148 Y103.274 E1.75383
G1 X97.638 Y102.96 E1.77169
G1 X97.756 Y103.223 E1.78054
G1 X98.036 Y103.601 E1.79498
G1 X98.554 Y103.946 E1.81408
G1 X98.825 Y104.046 E1.82295
G1 X99.179 Y104.101 E1.83395
G1 X99.434 Y104.096 E1.84178
G1 X99.99 Y103.951 E1.85942
G1 X100.421 Y103.662 E1.87535
G1 X100.64 Y103.428 E1.88519
G1 X100.788 Y103.558 E1.89124
G1 X101.173 Y103.767 E1.90468
G1 X101.526 Y103.823 E1.91565
G1 X101.844 Y103.783 E1.92549
G1 X102.227 Y103.582 E1.93877
G1 X102.607 Y103.133 E1.95682
G1 X102.802 Y103.409 E1.96719
G1 X103.125 Y103.689 E1.98031
G1 X103.44 Y103.81 E1.99067
G1 X103.773 Y103.832 E2.00091
G1 X104.296 Y103.712 E2.01738
;WIDTH:0.555003
G1 X104.451 Y103.607 E2.02354
;WIDTH:0.593679
G1 X104.605 Y103.503 E2.03011
;WIDTH:0.632354
G1 X104.76 Y103.399 E2.03716
;WIDTH:0.637456
G1 X104.894 Y103.159 E2.04764
;WIDTH:0.681442
G1 X105.015 Y102.733 E2.06575
G1 X104.973 Y102.49 E2.07583
;WIDTH:0.644174
G1 X104.931 Y102.247 E2.08533
;WIDTH:0.622329
G1 X104.731 Y101.767 E2.10465
;WIDTH:0.669175
G1 X104.491 Y101.321 E2.12497
;WIDTH:0.716021
G1 X104.156 Y100.718 E2.15469
G1 X104.179 Y100.646 E2.15795
G1 X104.613 Y99.911 E2.19472
G1 X104.862 Y100.581 E2.22551
G1 X105.06 Y101.047 E2.24732
;WIDTH:0.669175
G1 X105.259 Y101.513 E2.26765
;WIDTH:0.622329
G1 X105.307 Y101.631 E2.27238
;WIDTH:0.6172
G1 X105.506 Y102.159 E2.29316
;WIDTH:0.653843
G1 X105.598 Y102.416 E2.30385
;WIDTH:0.690486
G1 X105.691 Y102.673 E2.31518
G1 X105.653 Y102.841 E2.32232
G1 X105.561 Y103.094 E2.33348
;WIDTH:0.663396
G1 X105.47 Y103.346 E2.34413
;WIDTH:0.641399
G1 X105.244 Y103.774 E2.3627
G1 X105.086 Y103.861 E2.36962
;WIDTH:0.632354
G1 X104.905 Y103.949 E2.37723
;WIDTH:0.593679
G1 X104.724 Y104.036 E2.38433
;WIDTH:0.555003
G1 X104.543 Y104.123 E2.39094
;WIDTH:0.518651
G1 X104.294 Y104.349 E2.40123
;WIDTH:0.519999
G1 X104.103 Y104.651 E2.4122
G1 X104.049 Y105.184 E2.42864
G1 X104.203 Y105.665 E2.44414
G1 X104.421 Y105.97 E2.45565
G1 X104.66 Y106.167 E2.46516
;WIDTH:0.531273
G1 X104.975 Y106.323 E2.4762
;WIDTH:0.572941
G1 X105.207 Y106.363 E2.48421
;WIDTH:0.614608
G1 X105.439 Y106.402 E2.49284
G1 X105.734 Y106.356 E2.50379
;WIDTH:0.627257
G1 X106.487 Y106.109 E2.53348
G1 X106.673 Y105.973 E2.54211
;WIDTH:0.586201
G1 X106.856 Y105.785 E2.55126
;WIDTH:0.5531
G1 X107.04 Y105.597 E2.55988
;WIDTH:0.519999
G1 X107.374 Y105.085 E2.57864
G1 X107.777 Y104.144 E2.61006
G1 X108.382 Y102.508 E2.66359
;WIDTH:0.519814
G1 X108.559 Y102.002 E2.68004
;WIDTH:0.534235
G1 X108.805 Y101.347 E2.70214
;WIDTH:0.573598
G1 X108.916 Y101.094 E2.71156
;WIDTH:0.61296
G1 X109.028 Y100.84 E2.72171
;WIDTH:0.653582
G1 X109.207 Y100.405 E2.74012
;WIDTH:0.694203
G1 X109.387 Y99.969 E2.75979
G1 X109.574 Y100.106 E2.76946
G1 X110.072 Y100.265 E2.79126
G1 X109.669 Y100.884 E2.82206
;WIDTH:0.651616
G1 X109.523 Y101.122 E2.83295
;WIDTH:0.609029
G1 X109.383 Y101.35 E2.84267
;WIDTH:0.571632
G1 X109.243 Y101.577 E2.85173
;WIDTH:0.534235
G1 X109.007 Y102.166 E2.87177
;WIDTH:0.51966
G1 X108.958 Y102.412 E2.87946
;WIDTH:0.519999
G1 X109.004 Y102.879 E2.89386
G1 X109.206 Y103.361 E2.9099
G1 X109.436 Y103.586 E2.91977
G1 X109.663 Y103.725 E2.92794
G1 X110.059 Y103.833 E2.94054
G1 X111.868 Y103.823 E2.99606
G1 X111.475 Y104.161 E3.01197
G1 X110.928 Y104.585 E3.03321
G1 X110.397 Y104.957 E3.05311
G1 X109.404 Y105.56 E3.08877
G1 X108.944 Y105.801 E3.10471
G1 X108.088 Y106.201 E3.13371
G1 X107.503 Y106.443 E3.15314
;WIDTH:0.5531
G1 X107.254 Y106.51 E3.16159
;WIDTH:0.586201
G1 X107.006 Y106.577 E3.17055
;WIDTH:0.598085
G1 X106.31 Y106.782 E3.1964
;WIDTH:0.614608
G1 X105.215 Y107.052 E3.23776
;WIDTH:0.572941
G1 X104.95 Y107.128 E3.24714
;WIDTH:0.531273
G1 X104.134 Y107.25 E3.27305
;WIDTH:0.519999
G1 X103.262 Y107.321 E3.2999
G1 X102.333 Y107.337 E3.32842
G1 X101.691 Y107.312 E3.34814
G1 X78.362 Y105.898 E4.06545
G1 X77.949 Y105.793 E4.07853
G1 X77.66 Y105.594 E4.0893
G1 X77.472 Y105.278 E4.10058
G1 X77.384 Y104.826 E4.11471
G1 X77.384 Y102.313 E4.19184
G1 X77.733 Y102.796 E4.21013
G1 X78.306 Y103.285 E4.23325
G1 X79.076 Y103.652 E4.25943
G1 X79.732 Y103.781 E4.27995
G1 X80.688 Y103.752 E4.3093
G1 X81.284 Y103.591 E4.32825
G1 X81.865 Y103.262 E4.34874
G1 X82.182 Y102.963 E4.36211
G1 X82.403 Y102.633 E4.3743
G1 X82.562 Y102.265 E4.3866
G1 X82.614 Y101.936 E4.39682
G1 X82.525 Y101.58 E4.40808
G1 X82.355 Y101.292 E4.41834
G1 X82.209 Y101.139 E4.42483
G1 X81.984 Y100.98 E4.43329
G1 X81.798 Y100.911 E4.43938
G1 E3.93938 F240
G92 E0
G1 X81.798 Y100.911 F7800
G1 X77.124 Y100.742
G1 E.5 F240
;TYPE:External perimeter
;WIDTH:0.970244
G1 F1800
G1 X77.101 Y100.017 E.5429
;WIDTH:0.95942
G1 X77.12 Y99.282 E.58588
;WIDTH:0.96678
G1 X77.123 Y99.221 E.58948
G1 E.08948 F240
G92 E0
G1 X77.123 Y99.221 F7800
G1 X87.861 Y97.824
G1 E.5 F240
;WIDTH:0.530791
G1 F1800
G1 X87.722 Y98.026 E.50769
;WIDTH:0.519999
G1 X87.477 Y98.18 E.51657
G1 X86.972 Y98.265 E.53229
G1 X86.064 Y98.251 E.56016
G1 X86.008 Y98.308 E.56261
G1 X85.989 Y99.237 E.59113
G1 X86.003 Y102.346 E.68655
G1 X85.856 Y102.848 E.7026
G1 X85.668 Y103.042 E.71089
G1 X85.457 Y103.138 E.718
G1 X85.15 Y103.164 E.72746
G1 X84.821 Y103.07 E.73796
G1 X84.602 Y102.878 E.7469
G1 X84.502 Y102.545 E.75757
G1 X84.539 Y101.927 E.77657
G1 X84.523 Y99.152 E.86174
G1 X84.555 Y98.617 E.87819
G1 X84.514 Y98.384 E.88545
G1 X84.356 Y98.268 E.89147
G1 X83.98 Y98.236 E.90305
G1 X83.351 Y98.302 E.92246
G1 X83.045 Y98.239 E.93205
;WIDTH:0.539447
G1 X82.736 Y97.962 E.9453
;WIDTH:0.571454
G1 X82.611 Y97.55 E.95991
G1 X82.687 Y97.314 E.96833
;WIDTH:0.545727
G1 X82.763 Y97.078 E.97634
;WIDTH:0.519999
G1 X82.812 Y97.015 E.97879
G1 X83.011 Y96.85 E.98672
G1 X83.378 Y96.754 E.99836
G1 X83.986 Y96.796 E1.01706
G1 X87.277 Y96.785 E1.11807
G1 X87.645 Y96.899 E1.12989
G1 X87.844 Y97.148 E1.13967
;WIDTH:0.544909
G1 X87.926 Y97.543 E1.15269
G1 X87.881 Y97.737 E1.15912
G1 X87.45 Y98.154 F7800
G1 X88.594 Y97.251
;WIDTH:0.519999
G1 F1800
G1 X88.962 Y96.931 E1.17409
G1 X89.493 Y96.706 E1.19179
G1 X90.083 Y96.616 E1.21011
G1 X90.75 Y96.644 E1.2306
G1 X91.284 Y96.782 E1.24753
G1 X91.719 Y97.04 E1.26305
G1 X92.048 Y97.447 E1.27911
G1 X92.149 Y97.672 E1.28668
G1 X92.212 Y97.928 E1.29477
G1 X92.194 Y98.65 E1.31694
G1 X92.061 Y99.086 E1.33093
G1 X91.942 Y99.261 E1.33743
G1 X91.713 Y99.443 E1.34641
G1 X91.591 Y99.504 E1.3506
G1 X91.806 Y99.602 E1.35785
G1 X92.088 Y99.878 E1.36996
G1 X92.291 Y100.337 E1.38536
;WIDTH:0.563314
G1 X92.346 Y100.481 E1.39051
;WIDTH:0.606628
G1 X92.402 Y100.626 E1.39613
;WIDTH:0.649943
G1 X92.457 Y100.77 E1.40213
;WIDTH:0.693258
G1 X92.513 Y100.915 E1.4086
;WIDTH:0.736572
G1 X92.568 Y101.06 E1.41548
;WIDTH:0.742668
G1 X92.555 Y101.563 E1.438
G1 X92.507 Y101.651 E1.44249
;WIDTH:0.698134
G1 X92.459 Y101.739 E1.44669
;WIDTH:0.653601
G1 X92.41 Y101.826 E1.4506
;WIDTH:0.609067
G1 X92.362 Y101.914 E1.45424
;WIDTH:0.564533
G1 X92.314 Y102.001 E1.45757
;WIDTH:0.519999
G1 X92.085 Y102.413 E1.47204
G1 X91.847 Y102.71 E1.48372
G1 X91.458 Y103.008 E1.49876
G1 X91.144 Y103.168 E1.50958
G1 X90.722 Y103.28 E1.52298
G1 X90.339 Y103.315 E1.53478
G1 X89.72 Y103.282 E1.5538
G1 X89.112 Y103.108 E1.57321
G1 X88.694 Y102.807 E1.58902
G1 X88.491 Y102.462 E1.60131
G1 X88.445 Y102.187 E1.60987
G1 X88.503 Y101.855 E1.62021
G1 X88.683 Y101.607 E1.62961
G1 X88.934 Y101.471 E1.63837
