; generated by PrusaSlicer 2.7.1+MacOS-arm64 on 2024-02-27 at 15:15:59 UTC


;
;

;
;
; 

; external perimeters extrusion width = 0.50mm
; perimeters extrusion width = 0.52mm
; infill extrusion width = 0.60mm
; solid infill extrusion width = 0.50mm
; top infill extrusion width = 0.50mm
; first layer extrusion width = 0.52mm

M190 S80 ; set bed temperature and wait for it to be reached
M104 S210 ; set temperature
;TYPE:Custom
START_PRINT BED_TEMP=80 HOTEND_TEMP=210 FILAMENT_TYPE=PLA EXTRUSION_MULTIPLIER=0.95
M109 S210 ; set temperature and wait for it to be reached
G21 ; set units to millimeters
G90 ; use absolute coordinates
M82 ; use absolute distances for extrusion
G92 E0
; Filament gcode
M107
;LAYER_CHANGE
;Z:0.16
;HEIGHT:0.16
G1 Z.16 F7800
G1 E-.5 F240
G92 E0
G1 X179.017 Y183.288 F7800
G1 E.5 F240
;TYPE:Perimeter
;WIDTH:0.519999
G1 F1800
G1 X188.28 Y183.288 E.78429
G1 X188.691 Y183.245 E.79697
G1 X188.73 Y183.196 E.79889
G1 X188.768 Y183.245 E.80079
G1 X189.012 Y183.288 E.80839
G1 X197.534 Y183.288 E1.06994
G1 X197.534 Y191.809 E1.33146
G1 X197.534 Y201.796 E1.63797
G1 X179.025 Y201.796 E2.20603
G1 X179.025 Y193.275 E2.46755
G1 X178.983 Y193.03 E2.47518
G1 X178.929 Y192.992 E2.47721
G1 X178.983 Y192.954 E2.47924
G1 X179.025 Y192.709 E2.48687
G1 X179.017 Y183.378 E2.77325
G1 X178.183 Y182.792 F7800
;TYPE:External perimeter
;WIDTH:0.603912
G1 F1800
G1 X178.347 Y182.831 E2.77932
;WIDTH:0.577246
G1 X178.697 Y182.816 E2.79134
;WIDTH:0.548623
G1 X179.047 Y182.802 E2.80272
;WIDTH:0.519999
G1 X188.489 Y182.798 E3.09251
;WIDTH:0.56108
G1 X188.61 Y182.691 E3.09789
;WIDTH:0.60216
G1 X188.73 Y182.584 E3.10366
G1 X188.83 Y182.686 E3.10879
;WIDTH:0.56108
G1 X188.931 Y182.788 E3.11357
;WIDTH:0.519999
G1 X189.012 Y182.802 E3.11609
G1 X198.02 Y182.802 E3.39256
G1 X198.02 Y191.809 E3.66899
G1 X198.02 Y202.282 E3.99042
G1 X178.54 Y202.282 E4.58828
G1 X178.536 Y193.232 E4.86603
;WIDTH:0.56
G1 X178.416 Y193.112 E4.87167
;WIDTH:0.6
G1 X178.297 Y192.992 E4.87771
G1 X178.411 Y192.891 E4.88315
;WIDTH:0.56
G1 X178.526 Y192.791 E4.88821
;WIDTH:0.519999
G1 X178.54 Y192.709 E4.89076
G1 X178.54 Y183.309 E5.17926
;WIDTH:0.537763
G1 X178.475 Y183.131 E5.18529
;WIDTH:0.570838
G1 X178.329 Y182.962 E5.19286
;WIDTH:0.603912
G1 X178.242 Y182.861 E5.19766
G1 X178.839 Y182.808 F7800
G1 E4.69766 F240
G92 E0
G1 X178.297 Y192.992 F7800
G1 E.5 F240
;WIDTH:0.6
G1 F1800
G1 X38.262 Y192.992 E5.50579
;WIDTH:0.60216
G1 X38.238 Y192.992 E5.50665
G1 E5.00665 F240
G92 E0
G1 X38.238 Y192.992 F7800
G1 X38.386 Y182.792
G1 E.5 F240
;WIDTH:0.603906
G1 F1800
G1 X38.423 Y182.759 E.50178
;WIDTH:0.599628
G1 X98.497 Y122.685 E3.53673
;WIDTH:0.603912
G1 X98.53 Y122.649 E3.53849
G1 E3.03849 F240
G92 E0
G1 X98.53 Y122.649 F7800
G1 X99.025 Y103.288
G1 E.5 F240
;TYPE:Perimeter
;WIDTH:0.519999
G1 F1800
G1 X117.426 Y103.288 E1.06475
G1 X117.534 Y103.243 E1.06834
G1 X117.534 Y121.775 E1.63711
G1 X117.513 Y121.796 E1.63802
G1 X99.057 Y121.796 E2.20446
G1 X99.025 Y121.809 E2.20552
G1 X99.025 Y103.378 E2.77119
G1 X98.497 Y102.468 F7800
;TYPE:External perimeter
;WIDTH:0.599626
G1 F1800
G1 X38.354 Y42.325 E5.80962
G1 E5.30962 F240
G92 E0
G1 X38.354 Y42.325 F7800
G1 X38.238 Y32.992
G1 E.5 F240
;WIDTH:0.60216
G1 F1800
G1 X38.262 Y32.992 E.50086
;WIDTH:0.6
G1 X178.297 Y32.992 E5.50665
G1 E5.00665 F240
G92 E0
G1 X178.297 Y32.992 F7800
G1 X178.06 Y42.325
G1 E.5 F240
;WIDTH:0.599628
G1 F1800
G1 X118.063 Y102.322 E3.53106
;WIDTH:0.603912
G1 X118.029 Y102.358 E3.53284
G1 E3.03284 F240
G92 E0
G1 X118.029 Y102.358 F7800
G1 X98.497 Y102.468
G1 E.5 F240
;WIDTH:0.599626
G1 F1800
G1 X98.652 Y102.603 E.50734
;WIDTH:0.571019
G1 X98.808 Y102.739 E.51436
;WIDTH:0.542411
G1 X98.988 Y102.802 E.52048
;WIDTH:0.519999
G1 X117.426 Y102.802 E1.08636
G1 X117.597 Y102.731 E1.09204
;WIDTH:0.561956
G1 X117.813 Y102.545 E1.10154
;WIDTH:0.603912
G1 X118.029 Y102.358 E1.11182
G1 X117.991 Y102.522 E1.11788
;WIDTH:0.577246
G1 X118.005 Y102.714 E1.12448
;WIDTH:0.548623
G1 X118.02 Y102.906 E1.13074
;WIDTH:0.519999
G1 X118.02 Y121.775 E1.70985
;WIDTH:0.567891
G1 X117.996 Y122.475 E1.73347
;WIDTH:0.599626
G1 X118.063 Y122.675 E1.741
G1 X117.875 Y122.512 E1.74989
;WIDTH:0.565026
G1 X117.688 Y122.349 E1.75821
;WIDTH:0.530425
G1 X117.513 Y122.282 E1.76408
;WIDTH:0.519999
G1 X99.057 Y122.282 E2.33052
;WIDTH:0.535622
G1 X98.879 Y122.348 E2.33653
;WIDTH:0.569767
G1 X98.705 Y122.498 E2.3443
;WIDTH:0.603912
G1 X98.53 Y122.649 E2.35262
G1 X98.568 Y122.485 E2.35868
;WIDTH:0.577246
G1 X98.554 Y122.125 E2.37104
;WIDTH:0.548623
G1 X98.54 Y121.765 E2.38275
;WIDTH:0.519999
G1 X98.54 Y103.25 E2.951
;WIDTH:0.567891
G1 X98.564 Y102.668 E2.97064
;WIDTH:0.599626
G1 X98.525 Y102.553 E2.97498
G1 X99.053 Y102.838 F7800
G1 E2.47498 F240
G92 E0
G1 X37.534 Y41.796 F7800
G1 E.5 F240
;TYPE:Perimeter
;WIDTH:0.519999
G1 F1800
G1 X29.012 Y41.796 E.76155
G1 X28.67 Y41.838 E.77213
G1 X28.63 Y41.895 E.77427
G1 X28.589 Y41.838 E.77642
G1 X28.347 Y41.796 E.78396
G1 X19.025 Y41.796 E1.07006
G1 X19.025 Y23.288 E1.63809
G1 X37.534 Y23.288 E2.20615
G1 X37.534 Y32.542 E2.49017
G1 X37.576 Y32.954 E2.50288
G1 X37.626 Y32.992 E2.50481
G1 X37.576 Y33.03 E2.50674
G1 X37.534 Y33.275 E2.51437
G1 X37.534 Y41.706 E2.77313
G1 X38.354 Y42.325 F7800
;TYPE:External perimeter
;WIDTH:0.599626
G1 F1800
G1 X38.154 Y42.258 E2.78066
;WIDTH:0.567891
G1 X37.572 Y42.282 E2.8003
;WIDTH:0.519999
G1 X28.87 Y42.286 E3.06737
;WIDTH:0.56
G1 X28.75 Y42.405 E3.07298
;WIDTH:0.6
G1 X28.63 Y42.525 E3.07905
G1 X28.529 Y42.41 E3.08452
;WIDTH:0.56
G1 X28.428 Y42.296 E3.08958
;WIDTH:0.519999
G1 X28.349 Y42.282 E3.09204
G1 X18.54 Y42.282 E3.39309
G1 X18.54 Y22.802 E3.99095
G1 X38.02 Y22.802 E4.58881
G1 X38.023 Y32.752 E4.89419
;WIDTH:0.56108
G1 X38.131 Y32.872 E4.89956
;WIDTH:0.60216
G1 X38.238 Y32.992 E4.90533
G1 X38.136 Y33.093 E4.91048
;WIDTH:0.56108
G1 X38.034 Y33.193 E4.91523
;WIDTH:0.519999
G1 X38.02 Y33.272 E4.91769
G1 X38.02 Y41.834 E5.18047
;WIDTH:0.542411
G1 X38.083 Y42.014 E5.18659
;WIDTH:0.571019
G1 X38.218 Y42.169 E5.19356
;WIDTH:0.599626
G1 X38.295 Y42.257 E5.19774
G1 X37.695 Y42.276 F7800
G1 E4.69774 F240
G92 E0
G1 X28.63 Y182.584 F7800
G1 E.5 F240
;WIDTH:0.60216
G1 F1800
G1 X28.63 Y182.559 E.5009
;WIDTH:0.6
G1 X28.63 Y42.525 E5.50666
G1 E5.00666 F240
G92 E0
G1 X28.63 Y42.525 F7800
G1 X37.547 Y183.288
G1 E.5 F240
;TYPE:Perimeter
;WIDTH:0.519999
G1 F1800
G1 X37.534 Y183.319 E.50103
G1 X37.534 Y192.542 E.78409
G1 X37.576 Y192.954 E.7968
G1 X37.626 Y192.992 E.79873
G1 X37.576 Y193.03 E.80066
G1 X37.534 Y193.275 E.80829
G1 X37.534 Y201.796 E1.06981
G1 X19.025 Y201.796 E1.63787
G1 X19.025 Y183.288 E2.2059
G1 X28.28 Y183.288 E2.48995
G1 X28.589 Y183.246 E2.49952
G1 X28.63 Y183.194 E2.50155
G1 X28.67 Y183.246 E2.50356
G1 X28.912 Y183.288 E2.5111
G1 X37.457 Y183.288 E2.77336
G1 X38.386 Y182.792 F7800
;TYPE:External perimeter
;WIDTH:0.603906
G1 F1800
G1 X38.236 Y182.967 E2.78166
;WIDTH:0.569764
G1 X38.085 Y183.142 E2.78948
;WIDTH:0.535621
G1 X38.02 Y183.319 E2.79545
;WIDTH:0.519999
G1 X38.023 Y192.752 E3.08496
;WIDTH:0.56108
G1 X38.131 Y192.872 E3.09033
;WIDTH:0.60216
G1 X38.238 Y192.992 E3.0961
G1 X38.136 Y193.093 E3.10125
;WIDTH:0.56108
G1 X38.034 Y193.193 E3.106
;WIDTH:0.519999
G1 X38.02 Y193.275 E3.10855
G1 X38.02 Y202.282 E3.38498
G1 X18.54 Y202.282 E3.98284
G1 X18.54 Y182.802 E4.5807
G1 X28.375 Y182.8 E4.88255
;WIDTH:0.56108
G1 X28.502 Y182.692 E4.8881
;WIDTH:0.60216
G1 X28.63 Y182.584 E4.89411
G1 X28.731 Y182.686 E4.89926
;WIDTH:0.56108
G1 X28.832 Y182.788 E4.90404
;WIDTH:0.519999
G1 X28.912 Y182.802 E4.90653
G1 X37.503 Y182.802 E5.1702
;WIDTH:0.548621
G1 X37.863 Y182.816 E5.18191
;WIDTH:0.577242
G1 X38.223 Y182.831 E5.19427
;WIDTH:0.603906
G1 X38.299 Y182.813 E5.19708
G1 X38.002 Y183.334 F7800
G1 E4.69708 F240
G92 E0
G1 X178.183 Y182.792 F7800
G1 E.5 F240
;WIDTH:0.603912
G1 F1800
G1 X178.147 Y182.759 E.50176
;WIDTH:0.599626
G1 X118.063 Y122.675 E3.53721
G1 E3.03721 F240
G92 E0
G1 X118.063 Y122.675 F7800
G1 X188.73 Y42.525
G1 E.5 F240
;WIDTH:0.6
G1 F1800
G1 X188.73 Y182.559 E5.50576
;WIDTH:0.60216
G1 X188.73 Y182.584 E5.50666
G1 E5.00666 F240
G92 E0
G1 X188.73 Y182.584 F7800
G1 X178.98 Y41.796
G1 E.5 F240
;TYPE:Perimeter
;WIDTH:0.519999
G1 F1800
G1 X179.025 Y41.688 E.50359
G1 X179.025 Y33.275 E.76179
G1 X178.983 Y33.03 E.76942
G1 X178.929 Y32.992 E.77145
G1 X178.983 Y32.954 E.77348
G1 X179.025 Y32.709 E.78111
G1 X179.025 Y23.288 E1.07025
G1 X197.534 Y23.288 E1.63831
G1 X197.534 Y41.796 E2.20634
G1 X189.012 Y41.796 E2.46789
G1 X188.768 Y41.839 E2.47549
G1 X188.73 Y41.893 E2.47752
G1 X188.691 Y41.839 E2.47956
G1 X188.447 Y41.796 E2.48716
G1 X179.07 Y41.796 E2.77495
G1 X178.26 Y42.258 F7800
;TYPE:External perimeter
;WIDTH:0.599626
G1 F1800
G1 X178.06 Y42.325 E2.78248
G1 X178.264 Y42.092 E2.79354
;WIDTH:0.559813
G1 X178.469 Y41.86 E2.80382
;WIDTH:0.519999
G1 X178.54 Y41.688 E2.80953
G1 X178.536 Y33.232 E3.06905
;WIDTH:0.56
G1 X178.416 Y33.112 E3.07469
;WIDTH:0.6
G1 X178.297 Y32.992 E3.08073
G1 X178.411 Y32.891 E3.08617
;WIDTH:0.56
G1 X178.526 Y32.791 E3.09123
;WIDTH:0.519999
G1 X178.54 Y32.709 E3.09378
G1 X178.54 Y22.802 E3.39784
G1 X198.02 Y22.802 E3.9957
G1 X198.02 Y42.282 E4.59356
G1 X188.97 Y42.286 E4.87131
;WIDTH:0.56
G1 X188.85 Y42.405 E4.87692
;WIDTH:0.6
G1 X188.73 Y42.525 E4.88299
G1 X188.629 Y42.411 E4.88843
;WIDTH:0.56
G1 X188.528 Y42.296 E4.89351
;WIDTH:0.519999
G1 X188.447 Y42.282 E4.89603
G1 X179.134 Y42.282 E5.18186
;WIDTH:0.567892
G1 X178.349 Y42.261 E5.20834
G1 X178.264 Y41.667 F7800
G1 X179.195 Y40.644
;TYPE:Solid infill
;WIDTH:0.520433
G1 F1800
G1 X179.959 Y41.408 E5.24153
G1 X180.647 Y41.408 E5.26266
G1 X179.414 Y40.175 E5.31622
G1 X179.414 Y39.488 E5.33732
G1 X181.334 Y41.408 E5.42073
G1 X182.022 Y41.408 E5.44186
G1 X179.414 Y38.8 E5.55516
G1 X179.414 Y38.113 E5.57626
G1 X182.709 Y41.408 E5.7194
G1 X183.396 Y41.408 E5.7405
G1 X179.414 Y37.425 E5.91351
G1 X179.414 Y36.738 E5.93461
G1 X184.084 Y41.408 E6.13749
G1 X184.771 Y41.408 E6.15859
G1 X179.414 Y36.05 E6.39133
G1 X179.414 Y35.363 E6.41243
G1 X185.459 Y41.408 E6.67504
G1 X186.146 Y41.408 E6.69614
G1 X179.414 Y34.675 E6.98862
G1 X179.414 Y33.988 E7.00972
G1 X186.834 Y41.408 E7.33206
G1 X187.521 Y41.408 E7.35316
G1 X179.414 Y33.301 E7.70535
G1 X179.371 Y32.992 E7.71493
G1 X179.414 Y32.613 E7.72665
G1 X188.209 Y41.408 E8.10873
G1 X188.458 Y41.408 E8.11638
G1 X188.73 Y41.451 E8.12484
G1 X188.91 Y41.422 E8.13044
G1 X179.414 Y31.926 E8.54297
G1 X179.414 Y31.238 E8.5641
G1 X189.584 Y41.408 E9.00591
G1 X190.271 Y41.408 E9.02701
G1 X179.414 Y30.551 E9.49867
G1 X179.414 Y29.863 E9.5198
G1 X190.958 Y41.408 E10.02132
G1 X191.646 Y41.408 E10.04245
G1 X179.414 Y29.176 E10.57384
G1 X179.414 Y28.488 E10.59497
G1 X192.333 Y41.408 E11.15623
G1 X193.021 Y41.408 E11.17736
G1 X179.414 Y27.801 E11.76848
G1 X179.414 Y27.114 E11.78958
G1 X193.708 Y41.408 E12.41055
G1 X194.396 Y41.408 E12.43168
G1 X179.414 Y26.426 E13.08254
G1 X179.414 Y25.739 E13.10364
G1 X195.083 Y41.408 E13.78434
G1 X195.771 Y41.408 E13.80547
G1 X179.414 Y25.051 E14.51606
G1 X179.414 Y24.364 E14.53716
G1 X196.458 Y41.408 E15.2776
G1 X197.145 Y41.408 E15.2987
G1 X179.414 Y23.676 E16.069
G1 X180.101 Y23.676 E16.0901
G1 X197.145 Y40.72 E16.83054
G1 X197.145 Y40.033 E16.85164
G1 X180.789 Y23.676 E17.56221
G1 X181.476 Y23.676 E17.58331
G1 X197.145 Y39.346 E18.26403
G1 X197.145 Y38.658 E18.28516
G1 X182.164 Y23.676 E18.93599
G1 X182.851 Y23.676 E18.95709
G1 X197.145 Y37.971 E19.57808
G1 X197.145 Y37.283 E19.59921
G1 X183.538 Y23.676 E20.19033
G1 X184.226 Y23.676 E20.21146
G1 X197.145 Y36.596 E20.77272
G1 X197.145 Y35.908 E20.79385
G1 X184.913 Y23.676 E21.32524
G1 X185.601 Y23.676 E21.34637
G1 X197.145 Y35.221 E21.84789
G1 X197.145 Y34.533 E21.86902
G1 X186.288 Y23.676 E22.34068
G1 X186.976 Y23.676 E22.36181
G1 X197.145 Y33.846 E22.8036
G1 X197.145 Y33.159 E22.8247
G1 X187.663 Y23.676 E23.23664
G1 X188.351 Y23.676 E23.25777
G1 X197.145 Y32.471 E23.63983
G1 X197.145 Y31.784 E23.66093
G1 X189.038 Y23.676 E24.01314
G1 X189.725 Y23.676 E24.03424
G1 X197.145 Y31.096 E24.35658
G1 X197.145 Y30.409 E24.37768
G1 X190.413 Y23.676 E24.67016
G1 X191.1 Y23.676 E24.69126
G1 X197.145 Y29.721 E24.95387
G1 X197.145 Y29.034 E24.97497
G1 X191.788 Y23.676 E25.20771
G1 X192.475 Y23.676 E25.22881
G1 X197.145 Y28.346 E25.43169
G1 X197.145 Y27.659 E25.45279
G1 X193.163 Y23.676 E25.6258
G1 X193.85 Y23.676 E25.6469
G1 X197.145 Y26.972 E25.79007
G1 X197.145 Y26.284 E25.8112
G1 X194.538 Y23.676 E25.92448
G1 X195.225 Y23.676 E25.94558
G1 X197.145 Y25.597 E26.02901
G1 X197.145 Y24.909 E26.05014
G1 X195.912 Y23.676 E26.1037
G1 X196.6 Y23.676 E26.12483
G1 X197.364 Y24.44 E26.15802
G1 E25.65802 F240
G92 E0
G1 X197.364 Y24.44 F7800
G1 X117.364 Y104.44
G1 E.5 F240
G1 F1800
G1 X116.6 Y103.676 E.53319
G1 X115.912 Y103.676 E.55432
G1 X117.145 Y104.909 E.60788
G1 X117.145 Y105.597 E.62901
G1 X115.225 Y103.676 E.71244
G1 X114.538 Y103.676 E.73354
G1 X117.145 Y106.284 E.84682
G1 X117.145 Y106.972 E.86795
G1 X113.85 Y103.676 E1.01112
G1 X113.163 Y103.676 E1.03222
G1 X117.145 Y107.659 E1.20523
G1 X117.145 Y108.346 E1.22633
G1 X112.475 Y103.676 E1.42921
G1 X111.788 Y103.676 E1.45031
G1 X117.145 Y109.034 E1.68305
G1 X117.145 Y109.721 E1.70415
G1 X111.1 Y103.676 E1.96676
G1 X110.413 Y103.676 E1.98786
G1 X117.145 Y110.409 E2.28034
G1 X117.145 Y111.096 E2.30144
G1 X109.725 Y103.676 E2.62378
G1 X109.038 Y103.676 E2.64488
G1 X117.145 Y111.784 E2.99709
G1 X117.145 Y112.471 E3.01819
G1 X108.351 Y103.676 E3.40025
G1 X107.663 Y103.676 E3.42138
G1 X117.145 Y113.159 E3.83332
G1 X117.145 Y113.846 E3.85442
G1 X106.976 Y103.676 E4.29621
G1 X106.288 Y103.676 E4.31734
G1 X117.145 Y114.533 E4.789
G1 X117.145 Y115.221 E4.81013
G1 X105.601 Y103.676 E5.31165
G1 X104.913 Y103.676 E5.33278
G1 X117.145 Y115.908 E5.86417
G1 X117.145 Y116.596 E5.8853
G1 X104.226 Y103.676 E6.44656
G1 X103.538 Y103.676 E6.46769
G1 X117.145 Y117.283 E7.05881
G1 X117.145 Y117.971 E7.07994
G1 X102.851 Y103.676 E7.70093
G1 X102.164 Y103.676 E7.72203
G1 X117.145 Y118.658 E8.37286
G1 X117.145 Y119.346 E8.39399
G1 X101.476 Y103.676 E9.07471
G1 X100.789 Y103.676 E9.09581
G1 X117.145 Y120.033 E9.80638
G1 X117.145 Y120.72 E9.82748
G1 X100.101 Y103.676 E10.56792
G1 X99.414 Y103.676 E10.58902
G1 X117.145 Y121.408 E11.35932
G1 X116.458 Y121.408 E11.38042
G1 X99.414 Y104.364 E12.12086
G1 X99.414 Y105.051 E12.14196
G1 X115.771 Y121.408 E12.85255
G1 X115.083 Y121.408 E12.87368
G1 X99.414 Y105.739 E13.55438
G1 X99.414 Y106.426 E13.57548
G1 X114.396 Y121.408 E14.22634
G1 X113.708 Y121.408 E14.24747
G1 X99.414 Y107.114 E14.86844
G1 X99.414 Y107.801 E14.88954
G1 X113.021 Y121.408 E15.48066
G1 X112.333 Y121.408 E15.50179
G1 X99.414 Y108.488 E16.06305
G1 X99.414 Y109.176 E16.08418
G1 X111.646 Y121.408 E16.61557
G1 X110.958 Y121.408 E16.6367
G1 X99.414 Y109.863 E17.13822
G1 X99.414 Y110.551 E17.15935
G1 X110.271 Y121.408 E17.63101
G1 X109.584 Y121.408 E17.65211
G1 X99.414 Y111.238 E18.09392
G1 X99.414 Y111.926 E18.11505
G1 X108.896 Y121.408 E18.52697
G1 X108.209 Y121.408 E18.54807
G1 X99.414 Y112.613 E18.93015
G1 X99.414 Y113.301 E18.95128
G1 X107.521 Y121.408 E19.30347
G1 X106.834 Y121.408 E19.32457
G1 X99.414 Y113.988 E19.64691
G1 X99.414 Y114.675 E19.66801
G1 X106.146 Y121.408 E19.96049
G1 X105.459 Y121.408 E19.98159
G1 X99.414 Y115.363 E20.2442
G1 X99.414 Y116.05 E20.2653
G1 X104.771 Y121.408 E20.49804
G1 X104.084 Y121.408 E20.51914
G1 X99.414 Y116.738 E20.72202
G1 X99.414 Y117.425 E20.74312
G1 X103.396 Y121.408 E20.91613
G1 X102.709 Y121.408 E20.93723
G1 X99.414 Y118.113 E21.08037
G1 X99.414 Y118.8 E21.10147
G1 X102.022 Y121.408 E21.21477
G1 X101.334 Y121.408 E21.2359
G1 X99.414 Y119.488 E21.31931
G1 X99.414 Y120.175 E21.34041
G1 X100.647 Y121.408 E21.39397
G1 X99.959 Y121.408 E21.4151
G1 X99.195 Y120.644 E21.44829
G1 E20.94829 F240
G92 E0
G1 X99.195 Y120.644 F7800
G1 X37.364 Y184.44
G1 E.5 F240
G1 F1800
G1 X36.6 Y183.676 E.53319
G1 X35.912 Y183.676 E.55432
G1 X37.145 Y184.909 E.60788
G1 X37.145 Y185.597 E.62901
G1 X35.225 Y183.676 E.71244
G1 X34.538 Y183.676 E.73354
G1 X37.145 Y186.284 E.84682
G1 X37.145 Y186.972 E.86795
G1 X33.85 Y183.676 E1.01112
