; generated by PrusaSlicer 2.7.2+linux-x64-GTK3 on 2024-03-13 at 06:48:38 UTC


;
;

;
;
; 

; external perimeters extrusion width = 0.50mm
; perimeters extrusion width = 0.52mm
; infill extrusion width = 0.75mm
; solid infill extrusion width = 0.50mm
; top infill extrusion width = 0.50mm
; first layer extrusion width = 0.52mm

M190 S80 ; set bed temperature and wait for it to be reached
M104 S210 ; set temperature
;TYPE:Custom
START_PRINT BED_TEMP=80 HOTEND_TEMP=210 FILAMENT_TYPE=PLA EXTRUSION_MULTIPLIER=0.95
M109 S210 ; set temperature and wait for it to be reached
G21 ; set units to millimeters
G90 ; use absolute coordinates
M82 ; use absolute distances for extrusion
G92 E0
; Filament gcode
M107
;LAYER_CHANGE
;Z:0.16
;HEIGHT:0.16
G1 E-.5 F240
G1 Z.16 F7800
G1 X111.669 Y62.265
G1 E0 F240
;TYPE:Perimeter
;WIDTH:0.519999
G1 F1800
G1 X111.448 Y62.437 E.00859
G1 X96.437 Y77.448 E.66012
G1 X96.107 Y77.871 E.67659
;WIDTH:0.553949
G1 X96.015 Y78.043 E.683
;WIDTH:0.587899
G1 X95.922 Y78.215 E.68984
;WIDTH:0.621848
G1 X95.83 Y78.387 E.69708
G1 X95.77 Y78.993 E.71969
;WIDTH:0.574516
G1 X95.77 Y86.77 E.98517
G1 X95.23 Y86.77 E1.0036
G1 X95.23 Y78.993 E1.26908
;WIDTH:0.621848
G1 X95.254 Y78.307 E1.29456
G1 X95.237 Y78.079 E1.30305
;WIDTH:0.587899
G1 X95.22 Y77.85 E1.31108
;WIDTH:0.553949
G1 X95.203 Y77.622 E1.31859
;WIDTH:0.519999
G1 X95.203 Y62.727 E1.77573
G1 X96.727 Y61.203 E1.84188
G1 X111.622 Y61.203 E2.29902
;WIDTH:0.562166
G1 X112.307 Y61.224 E2.32188
;WIDTH:0.574516
G1 X120.77 Y61.23 E2.61078
G1 X120.77 Y61.5 E2.62
G1 X120.77 Y61.77 E2.62922
G1 X112.993 Y61.77 E2.8947
;WIDTH:0.593328
G1 X112.609 Y61.794 E2.90829
G1 X112.395 Y61.859 E2.91619
;WIDTH:0.562166
G1 X111.871 Y62.107 E2.93553
;WIDTH:0.519999
G1 X111.74 Y62.209 E2.94063
G1 X111.74 Y62.209 F7800
G1 X111.957 Y62.651
G1 F1800
G1 X111.791 Y62.781 E2.9471
G1 X96.781 Y77.791 E3.59859
G1 X96.524 Y78.121 E3.61143
G1 X96.347 Y78.532 E3.62516
G1 X96.283 Y78.993 E3.63944
G1 X96.283 Y87.283 E3.89387
G1 X94.717 Y87.283 E3.94193
G1 X94.717 Y62.525 E4.70178
G1 X96.525 Y60.717 E4.78025
G1 X121.283 Y60.717 E5.5401
G1 X121.283 Y61.5 E5.56413
G1 X121.283 Y62.283 E5.58816
G1 X112.993 Y62.283 E5.84259
G1 X112.699 Y62.309 E5.85165
G1 X112.121 Y62.524 E5.87058
G1 X112.028 Y62.596 E5.87419
G1 X112.245 Y63.038 F7800
G1 F1800
G1 X112.134 Y63.124 E5.8785
G1 X97.124 Y78.134 E6.52999
G1 X96.941 Y78.37 E6.53916
G1 X96.814 Y78.664 E6.54899
G1 X96.769 Y78.993 E6.55918
G1 X96.769 Y87.769 E6.82853
G1 X94.231 Y87.769 E6.90642
G1 X94.231 Y62.324 E7.68736
G1 X96.324 Y60.231 E7.7782
G1 X121.769 Y60.231 E8.55914
G1 X121.769 Y61.5 E8.59809
G1 X121.769 Y62.769 E8.63704
G1 X112.993 Y62.769 E8.90639
G1 X112.783 Y62.787 E8.91286
G1 X112.37 Y62.941 E8.92639
G1 X112.316 Y62.983 E8.92849
G1 X112.316 Y62.983 F7800
G1 X112.576 Y63.41
G1 F1800
G1 X112.478 Y63.468 E8.93199
G1 X97.468 Y78.478 E9.58348
G1 X97.282 Y78.795 E9.59476
G1 X97.254 Y78.993 E9.6009
G1 X97.254 Y88.254 E9.88513
G1 X93.746 Y88.254 E9.99279
G1 X93.746 Y62.123 E10.79478
G1 X96.123 Y59.746 E10.89795
G1 X122.254 Y59.746 E11.69994
G1 X122.254 Y61.5 E11.75377
G1 X122.254 Y63.254 E11.8076
G1 X112.993 Y63.254 E12.09183
G1 X112.795 Y63.282 E12.09797
G1 X112.654 Y63.364 E12.10298
G1 X112.654 Y63.364 F7800
G1 X112.824 Y63.81
;TYPE:External perimeter
G1 F1800
G1 X112.821 Y63.811 E12.10308
G1 X97.811 Y78.821 E12.75457
G1 X97.74 Y78.993 E12.76028
G1 X97.74 Y88.74 E13.05943
G1 X93.26 Y88.74 E13.19693
G1 X93.26 Y61.922 E14.02
G1 X95.922 Y59.26 E14.13554
G1 X122.74 Y59.26 E14.95861
G1 X122.74 Y61.5 E15.02736
G1 X122.74 Y63.74 E15.09611
G1 X112.993 Y63.74 E15.39526
G1 X112.907 Y63.776 E15.39812
G1 X112.461 Y64.177 F7800
G1 E14.89812 F240
G92 E0
G1 X111.742 Y61.994 F7800
G1 E.5 F240
;TYPE:Solid infill
;WIDTH:0.523206
G1 F1800
G1 X111.339 Y61.591 E.51761
G1 X110.648 Y61.591 E.53896
G1 X111.198 Y62.142 E.56301
G1 X110.85 Y62.485 E.57811
G1 X109.956 Y61.591 E.61717
G1 X109.265 Y61.591 E.63852
G1 X110.505 Y62.831 E.6927
G1 X110.159 Y63.176 E.7078
G1 X108.574 Y61.591 E.77705
G1 X107.882 Y61.591 E.79843
G1 X109.813 Y63.522 E.8828
G1 X109.468 Y63.868 E.8979
G1 X107.191 Y61.591 E.99738
G1 X106.5 Y61.591 E1.01873
G1 X109.122 Y64.214 E1.13331
G1 X108.776 Y64.559 E1.14841
G1 X105.808 Y61.591 E1.27808
G1 X105.117 Y61.591 E1.29943
G1 X108.431 Y64.905 E1.44422
G1 X108.085 Y65.251 E1.45934
G1 X104.426 Y61.591 E1.61923
G1 X103.734 Y61.591 E1.64061
G1 X107.739 Y65.596 E1.81559
G1 X107.394 Y65.942 E1.83069
G1 X103.043 Y61.591 E2.02079
G1 X102.351 Y61.591 E2.04217
G1 X107.048 Y66.288 E2.24738
G1 X106.702 Y66.633 E2.26248
G1 X101.66 Y61.591 E2.48277
G1 X100.969 Y61.591 E2.50412
G1 X106.357 Y66.979 E2.73952
G1 X106.011 Y67.325 E2.75464
G1 X100.277 Y61.591 E3.00516
G1 X99.586 Y61.591 E3.02651
G1 X105.665 Y67.67 E3.2921
G1 X105.319 Y68.016 E3.30722
G1 X98.895 Y61.591 E3.58791
G1 X98.203 Y61.591 E3.60929
G1 X104.974 Y68.362 E3.90512
G1 X104.628 Y68.707 E3.92022
G1 X97.512 Y61.591 E4.23112
G1 X96.888 Y61.591 E4.2504
G1 X96.854 Y61.625 E4.25189
G1 X104.282 Y69.053 E4.57642
G1 X103.937 Y69.399 E4.59152
G1 X96.508 Y61.97 E4.9161
G1 X96.163 Y62.316 E4.9312
G1 X103.591 Y69.744 E5.25573
G1 X103.245 Y70.09 E5.27085
G1 X95.817 Y62.662 E5.59538
G1 X95.591 Y62.888 E5.60525
G1 X95.591 Y63.127 E5.61263
G1 X102.9 Y70.436 E5.93196
G1 X102.554 Y70.782 E5.94708
G1 X95.591 Y63.819 E6.2513
G1 X95.591 Y64.51 E6.27265
G1 X102.208 Y71.127 E6.56175
G1 X101.863 Y71.473 E6.57685
G1 X95.591 Y65.201 E6.85088
G1 X95.591 Y65.893 E6.87226
G1 X101.517 Y71.819 E7.13117
G1 X101.171 Y72.164 E7.14627
G1 X95.591 Y66.584 E7.39006
G1 X95.591 Y67.276 E7.41144
G1 X100.826 Y72.51 E7.64014
G1 X100.48 Y72.856 E7.65526
G1 X95.591 Y67.967 E7.86886
G1 X95.591 Y68.658 E7.89021
G1 X100.134 Y73.201 E8.0887
G1 X99.789 Y73.547 E8.1038
G1 X95.591 Y69.35 E8.28719
G1 X95.591 Y70.041 E8.30854
G1 X99.443 Y73.893 E8.47684
G1 X99.097 Y74.238 E8.49194
G1 X95.591 Y70.732 E8.64512
G1 X95.591 Y71.424 E8.6665
G1 X98.751 Y74.584 E8.80456
G1 X98.406 Y74.93 E8.81966
G1 X95.591 Y72.115 E8.94265
G1 X95.591 Y72.806 E8.964
G1 X98.06 Y75.275 E9.07187
G1 X97.714 Y75.621 E9.08699
G1 X95.591 Y73.498 E9.17974
G1 X95.591 Y74.189 E9.20109
G1 X97.369 Y75.967 E9.27877
G1 X97.023 Y76.312 E9.29387
G1 X95.591 Y74.881 E9.35641
G1 X95.591 Y75.572 E9.37776
G1 X96.677 Y76.658 E9.42521
G1 X96.332 Y77.004 E9.44031
G1 X95.591 Y76.263 E9.47268
G1 X95.591 Y76.955 E9.49406
G1 X96.007 Y77.371 E9.51224
G1 X95.713 Y77.768 E9.5275
G1 X95.373 Y77.427 E9.54238
G1 E9.04238 F240
G92 E0
G1 X95.373 Y77.427 F7800
G1 X75.669 Y62.265
G1 E.5 F240
;TYPE:Perimeter
;WIDTH:0.519999
G1 F1800
G1 X75.448 Y62.437 E.50859
G1 X60.437 Y77.448 E1.16012
G1 X60.107 Y77.871 E1.17659
;WIDTH:0.553949
G1 X60.015 Y78.043 E1.183
;WIDTH:0.587899
G1 X59.922 Y78.215 E1.18984
;WIDTH:0.621848
G1 X59.83 Y78.387 E1.19708
G1 X59.77 Y78.993 E1.21969
;WIDTH:0.574516
G1 X59.77 Y86.77 E1.48517
G1 X59.23 Y86.77 E1.5036
G1 X59.23 Y78.993 E1.76908
;WIDTH:0.621848
G1 X59.254 Y78.307 E1.79456
G1 X59.237 Y78.079 E1.80305
;WIDTH:0.587899
G1 X59.22 Y77.85 E1.81108
;WIDTH:0.553949
G1 X59.203 Y77.622 E1.81859
;WIDTH:0.519999
G1 X59.203 Y62.727 E2.27573
G1 X60.727 Y61.203 E2.34188
G1 X75.622 Y61.203 E2.79902
;WIDTH:0.562166
G1 X76.307 Y61.224 E2.82188
;WIDTH:0.574516
G1 X84.77 Y61.23 E3.11078
G1 X84.77 Y61.5 E3.12
G1 X84.77 Y61.77 E3.12922
G1 X76.993 Y61.77 E3.3947
;WIDTH:0.593328
G1 X76.609 Y61.794 E3.40829
G1 X76.395 Y61.859 E3.41619
;WIDTH:0.562166
G1 X75.871 Y62.107 E3.43553
;WIDTH:0.519999
G1 X75.74 Y62.209 E3.44063
G1 X75.74 Y62.209 F7800
G1 X75.957 Y62.651
G1 F1800
G1 X75.791 Y62.781 E3.4471
G1 X60.781 Y77.791 E4.09859
G1 X60.524 Y78.121 E4.11143
G1 X60.347 Y78.532 E4.12516
G1 X60.283 Y78.993 E4.13944
G1 X60.283 Y87.283 E4.39387
G1 X58.717 Y87.283 E4.44193
G1 X58.717 Y62.525 E5.20178
G1 X60.525 Y60.717 E5.28025
G1 X85.283 Y60.717 E6.0401
G1 X85.283 Y61.5 E6.06413
G1 X85.283 Y62.283 E6.08816
G1 X76.993 Y62.283 E6.34259
G1 X76.699 Y62.309 E6.35165
G1 X76.121 Y62.524 E6.37058
G1 X76.028 Y62.596 E6.37419
G1 X76.245 Y63.038 F7800
G1 F1800
G1 X76.134 Y63.124 E6.3785
G1 X61.124 Y78.134 E7.02999
G1 X60.941 Y78.37 E7.03916
G1 X60.814 Y78.664 E7.04899
G1 X60.769 Y78.993 E7.05918
G1 X60.769 Y87.769 E7.32853
G1 X58.231 Y87.769 E7.40642
G1 X58.231 Y62.324 E8.18736
G1 X60.324 Y60.231 E8.2782
G1 X85.769 Y60.231 E9.05914
G1 X85.769 Y61.5 E9.09809
G1 X85.769 Y62.769 E9.13704
G1 X76.993 Y62.769 E9.40639
G1 X76.783 Y62.787 E9.41286
G1 X76.37 Y62.941 E9.42639
G1 X76.316 Y62.983 E9.42849
G1 X76.316 Y62.983 F7800
G1 X76.576 Y63.41
G1 F1800
G1 X76.478 Y63.468 E9.43199
G1 X61.468 Y78.478 E10.08348
G1 X61.282 Y78.795 E10.09476
G1 X61.254 Y78.993 E10.1009
G1 X61.254 Y88.254 E10.38513
G1 X57.746 Y88.254 E10.49279
G1 X57.746 Y62.123 E11.29478
G1 X60.123 Y59.746 E11.39795
G1 X86.254 Y59.746 E12.19994
G1 X86.254 Y61.5 E12.25377
G1 X86.254 Y63.254 E12.3076
G1 X76.993 Y63.254 E12.59183
G1 X76.795 Y63.282 E12.59797
G1 X76.654 Y63.364 E12.60298
G1 X76.654 Y63.364 F7800
G1 X76.824 Y63.81
;TYPE:External perimeter
G1 F1800
G1 X76.821 Y63.811 E12.60308
G1 X61.811 Y78.821 E13.25457
G1 X61.74 Y78.993 E13.26028
G1 X61.74 Y88.74 E13.55943
G1 X57.26 Y88.74 E13.69693
G1 X57.26 Y61.922 E14.52
G1 X59.922 Y59.26 E14.63554
G1 X86.74 Y59.26 E15.45861
G1 X86.74 Y61.5 E15.52736
G1 X86.74 Y63.74 E15.59611
G1 X76.993 Y63.74 E15.89526
G1 X76.907 Y63.776 E15.89812
G1 X76.461 Y64.177 F7800
G1 E15.39812 F240
G92 E0
G1 X75.742 Y61.994 F7800
G1 E.5 F240
;TYPE:Solid infill
;WIDTH:0.523206
G1 F1800
G1 X75.339 Y61.591 E.51761
G1 X74.648 Y61.591 E.53896
G1 X75.198 Y62.142 E.56301
G1 X74.85 Y62.485 E.57811
G1 X73.956 Y61.591 E.61717
G1 X73.265 Y61.591 E.63852
G1 X74.505 Y62.831 E.6927
G1 X74.159 Y63.176 E.7078
G1 X72.574 Y61.591 E.77705
G1 X71.882 Y61.591 E.79843
G1 X73.813 Y63.522 E.8828
G1 X73.468 Y63.868 E.8979
G1 X71.191 Y61.591 E.99738
G1 X70.5 Y61.591 E1.01873
G1 X73.122 Y64.214 E1.13331
G1 X72.776 Y64.559 E1.14841
G1 X69.808 Y61.591 E1.27808
G1 X69.117 Y61.591 E1.29943
G1 X72.431 Y64.905 E1.44422
G1 X72.085 Y65.251 E1.45934
G1 X68.426 Y61.591 E1.61923
G1 X67.734 Y61.591 E1.64061
G1 X71.739 Y65.596 E1.81559
G1 X71.394 Y65.942 E1.83069
G1 X67.043 Y61.591 E2.02079
G1 X66.351 Y61.591 E2.04217
G1 X71.048 Y66.288 E2.24738
G1 X70.702 Y66.633 E2.26248
G1 X65.66 Y61.591 E2.48277
G1 X64.969 Y61.591 E2.50412
G1 X70.357 Y66.979 E2.73952
G1 X70.011 Y67.325 E2.75464
G1 X64.277 Y61.591 E3.00516
G1 X63.586 Y61.591 E3.02651
G1 X69.665 Y67.67 E3.2921
G1 X69.319 Y68.016 E3.30722
G1 X62.895 Y61.591 E3.58791
G1 X62.203 Y61.591 E3.60929
G1 X68.974 Y68.362 E3.90512
G1 X68.628 Y68.707 E3.92022
G1 X61.512 Y61.591 E4.23112
G1 X60.888 Y61.591 E4.2504
G1 X60.854 Y61.625 E4.25189
G1 X68.282 Y69.053 E4.57642
G1 X67.937 Y69.399 E4.59152
G1 X60.508 Y61.97 E4.9161
G1 X60.163 Y62.316 E4.9312
G1 X67.591 Y69.744 E5.25573
G1 X67.245 Y70.09 E5.27085
G1 X59.817 Y62.662 E5.59538
G1 X59.591 Y62.888 E5.60525
G1 X59.591 Y63.127 E5.61263
G1 X66.9 Y70.436 E5.93196
G1 X66.554 Y70.782 E5.94708
G1 X59.591 Y63.819 E6.2513
G1 X59.591 Y64.51 E6.27265
G1 X66.208 Y71.127 E6.56175
G1 X65.863 Y71.473 E6.57685
G1 X59.591 Y65.201 E6.85088
G1 X59.591 Y65.893 E6.87226
G1 X65.517 Y71.819 E7.13117
G1 X65.171 Y72.164 E7.14627
G1 X59.591 Y66.584 E7.39006
G1 X59.591 Y67.276 E7.41144
G1 X64.826 Y72.51 E7.64014
G1 X64.48 Y72.856 E7.65526
G1 X59.591 Y67.967 E7.86886
G1 X59.591 Y68.658 E7.89021
G1 X64.134 Y73.201 E8.0887
G1 X63.789 Y73.547 E8.1038
G1 X59.591 Y69.35 E8.28719
G1 X59.591 Y70.041 E8.30854
G1 X63.443 Y73.893 E8.47684
G1 X63.097 Y74.238 E8.49194
G1 X59.591 Y70.732 E8.64512
G1 X59.591 Y71.424 E8.6665
G1 X62.751 Y74.584 E8.80456
G1 X62.406 Y74.93 E8.81966
G1 X59.591 Y72.115 E8.94265
G1 X59.591 Y72.806 E8.964
G1 X62.06 Y75.275 E9.07187
G1 X61.714 Y75.621 E9.08699
G1 X59.591 Y73.498 E9.17974
G1 X59.591 Y74.189 E9.20109
G1 X61.369 Y75.967 E9.27877
G1 X61.023 Y76.312 E9.29387
G1 X59.591 Y74.881 E9.35641
G1 X59.591 Y75.572 E9.37776
G1 X60.677 Y76.658 E9.42521
G1 X60.332 Y77.004 E9.44031
G1 X59.591 Y76.263 E9.47268
G1 X59.591 Y76.955 E9.49406
G1 X60.007 Y77.371 E9.51224
G1 X59.713 Y77.768 E9.5275
G1 X59.373 Y77.427 E9.54238
G1 E9.04238 F240
G92 E0
G1 X59.373 Y77.427 F7800
G1 X75.669 Y98.265
G1 E.5 F240
;TYPE:Perimeter
;WIDTH:0.519999
G1 F1800
G1 X75.448 Y98.437 E.50859
G1 X60.437 Y113.448 E1.16012
G1 X60.107 Y113.871 E1.17659
;WIDTH:0.553949
G1 X60.015 Y114.043 E1.183
;WIDTH:0.587899
G1 X59.922 Y114.215 E1.18984
;WIDTH:0.621848
G1 X59.83 Y114.387 E1.19708
G1 X59.77 Y114.993 E1.21969
;WIDTH:0.574516
G1 X59.77 Y122.77 E1.48517
G1 X59.23 Y122.77 E1.5036
G1 X59.23 Y114.993 E1.76908
;WIDTH:0.621848
G1 X59.254 Y114.307 E1.79456
G1 X59.237 Y114.079 E1.80305
;WIDTH:0.587899
G1 X59.22 Y113.85 E1.81108
;WIDTH:0.553949
G1 X59.203 Y113.622 E1.81859
;WIDTH:0.519999
G1 X59.203 Y98.727 E2.27573
G1 X60.727 Y97.203 E2.34188
G1 X75.622 Y97.203 E2.79902
;WIDTH:0.562166
G1 X76.307 Y97.224 E2.82188
;WIDTH:0.574516
G1 X84.77 Y97.23 E3.11078
G1 X84.77 Y97.5 E3.12
G1 X84.77 Y97.77 E3.12922
G1 X76.993 Y97.77 E3.3947
;WIDTH:0.593328
G1 X76.609 Y97.794 E3.40829
G1 X76.395 Y97.859 E3.41619
;WIDTH:0.562166
G1 X75.871 Y98.107 E3.43553
;WIDTH:0.519999
G1 X75.74 Y98.209 E3.44063
G1 X75.74 Y98.209 F7800
G1 X75.957 Y98.651
G1 F1800
G1 X75.791 Y98.781 E3.4471
G1 X60.781 Y113.791 E4.09859
G1 X60.524 Y114.121 E4.11143
G1 X60.347 Y114.532 E4.12516
G1 X60.283 Y114.993 E4.13944
G1 X60.283 Y123.283 E4.39387
G1 X58.717 Y123.283 E4.44193
G1 X58.717 Y98.525 E5.20178
G1 X60.525 Y96.717 E5.28025
G1 X85.283 Y96.717 E6.0401
G1 X85.283 Y97.5 E6.06413
G1 X85.283 Y98.283 E6.08816
G1 X76.993 Y98.283 E6.34259
G1 X76.699 Y98.309 E6.35165
G1 X76.121 Y98.524 E6.37058
G1 X76.028 Y98.596 E6.37419
G1 X76.245 Y99.038 F7800
G1 F1800
G1 X76.134 Y99.124 E6.3785
G1 X61.124 Y114.134 E7.02999
G1 X60.941 Y114.37 E7.03916
G1 X60.814 Y114.664 E7.04899
G1 X60.769 Y114.993 E7.05918
G1 X60.769 Y123.769 E7.32853
G1 X58.231 Y123.769 E7.40642
G1 X58.231 Y98.324 E8.18736
G1 X60.324 Y96.231 E8.2782
G1 X85.769 Y96.231 E9.05914
G1 X85.769 Y97.5 E9.09809
G1 X85.769 Y98.769 E9.13704
G1 X76.993 Y98.769 E9.40639
G1 X76.783 Y98.787 E9.41286
G1 X76.37 Y98.941 E9.42639
G1 X76.316 Y98.983 E9.42849
G1 X76.316 Y98.983 F7800
G1 X76.576 Y99.41
G1 F1800
G1 X76.478 Y99.468 E9.43199
G1 X61.468 Y114.478 E10.08348
G1 X61.282 Y114.795 E10.09476
G1 X61.254 Y114.993 E10.1009
G1 X61.254 Y124.254 E10.38513
G1 X57.746 Y124.254 E10.49279
G1 X57.746 Y98.123 E11.29478
G1 X60.123 Y95.746 E11.39795
G1 X86.254 Y95.746 E12.19994
G1 X86.254 Y97.5 E12.25377
G1 X86.254 Y99.254 E12.3076
G1 X76.993 Y99.254 E12.59183
G1 X76.795 Y99.282 E12.59797
G1 X76.654 Y99.364 E12.60298
G1 X76.654 Y99.364 F7800
G1 X76.824 Y99.81
;TYPE:External perimeter
G1 F1800
G1 X76.821 Y99.811 E12.60308
G1 X61.811 Y114.821 E13.25457
G1 X61.74 Y114.993 E13.26028
G1 X61.74 Y124.74 E13.55943
G1 X57.26 Y124.74 E13.69693
G1 X57.26 Y97.922 E14.52
G1 X59.922 Y95.26 E14.63554
G1 X86.74 Y95.26 E15.45861
G1 X86.74 Y97.5 E15.52736
G1 X86.74 Y99.74 E15.59611
G1 X76.993 Y99.74 E15.89526
G1 X76.907 Y99.776 E15.89812
G1 X76.461 Y100.177 F7800
G1 E15.39812 F240
G92 E0
G1 X75.742 Y97.994 F7800
G1 E.5 F240
;TYPE:Solid infill
;WIDTH:0.523206
G1 F1800
G1 X75.339 Y97.591 E.51761
G1 X74.648 Y97.591 E.53896
G1 X75.198 Y98.142 E.56301
G1 X74.85 Y98.485 E.57811
G1 X73.956 Y97.591 E.61717
G1 X73.265 Y97.591 E.63852
G1 X74.505 Y98.831 E.6927
G1 X74.159 Y99.176 E.7078
G1 X72.574 Y97.591 E.77705
G1 X71.882 Y97.591 E.79843
G1 X73.813 Y99.522 E.8828
G1 X73.468 Y99.868 E.8979
G1 X71.191 Y97.591 E.99738
G1 X70.5 Y97.591 E1.01873
G1 X73.122 Y100.214 E1.13331
G1 X72.776 Y100.559 E1.14841
G1 X69.808 Y97.591 E1.27808
G1 X69.117 Y97.591 E1.29943
G1 X72.431 Y100.905 E1.44422
G1 X72.085 Y101.251 E1.45934
G1 X68.426 Y97.591 E1.61923
G1 X67.734 Y97.591 E1.64061
G1 X71.739 Y101.596 E1.81559
G1 X71.394 Y101.942 E1.83069
G1 X67.043 Y97.591 E2.02079
G1 X66.351 Y97.591 E2.04217
G1 X71.048 Y102.288 E2.24738
G1 X70.702 Y102.633 E2.26248
G1 X65.66 Y97.591 E2.48277
G1 X64.969 Y97.591 E2.50412
G1 X70.357 Y102.979 E2.73952
G1 X70.011 Y103.325 E2.75464
G1 X64.277 Y97.591 E3.00516
G1 X63.586 Y97.591 E3.02651
