; generated by PrusaSlicer 2.8.0+MacOS-arm64 on 2024-07-24 at 08:34:02 UTC


;
;

;
;
; 

; external perimeters extrusion width = 0.54mm
; perimeters extrusion width = 0.60mm
; infill extrusion width = 0.54mm
; solid infill extrusion width = 0.54mm
; top infill extrusion width = 0.54mm
; first layer extrusion width = 0.60mm


EXCLUDE_OBJECT_DEFINE NAME='3dbenchy_stl' CENTER=123.391,124.999 POLYGON=[[130.814,109.500],[134.040,109.655],[134.842,109.782],[136.896,110.334],[138.822,110.987],[140.548,111.693],[142.366,112.572],[143.930,113.449],[145.637,114.544],[147.104,115.612],[149.831,117.962],[151.282,119.443],[152.498,120.838],[154.652,123.745],[154.966,124.593],[154.999,125.088],[154.932,125.569],[154.624,126.301],[153.660,127.676],[152.060,129.683],[150.200,131.680],[148.512,133.239],[146.544,134.810],[144.652,136.106],[142.594,137.307],[140.579,138.292],[138.493,139.134],[136.296,139.841],[134.316,140.319],[130.908,140.500],[128.133,140.437],[125.373,140.188],[116.462,138.716],[110.338,137.806],[103.551,136.938],[96.792,136.215],[95.992,135.917],[95.407,135.370],[95.127,134.849],[95.000,134.179],[95.000,115.816],[95.081,115.296],[95.264,114.854],[95.539,114.466],[95.887,114.154],[96.312,113.919],[96.798,113.784],[104.180,112.988],[110.657,112.150],[116.858,111.221],[125.055,109.853],[127.988,109.571]]

;TYPE:Custom
START_PRINT BED_TEMP=80 HOTEND_TEMP=215 FILAMENT_TYPE=PLA EXTRUSION_MULTIPLIER=0.92 PERIMETER_SPEED=80
G21 ; set units to millimeters
G90 ; use absolute coordinates
M82 ; use absolute distances for extrusion
G92 E0
; Filament gcode
M107
;LAYER_CHANGE
;Z:0.25
;HEIGHT:0.25
G1 E-.5 F240
G1 Z.25 F9000
EXCLUDE_OBJECT_START NAME='3dbenchy_stl'
G92 E0
G1 X123.163 Y127.656
G1 E.5 F240
G92 E0
;TYPE:External perimeter
;WIDTH:0.894842
G1 F768
G1 X123.211 Y127.374 E.02301
G1 X123.26 Y127.302 E.03002
;WIDTH:0.848011
G1 X123.308 Y127.23 E.03659
;WIDTH:0.801179
G1 X123.357 Y127.158 E.04282
;WIDTH:0.754347
G1 X123.417 Y127.092 E.0488
;WIDTH:0.71576
G1 X123.476 Y127.026 E.0544
;WIDTH:0.677173
G1 X123.536 Y126.961 E.05967
;WIDTH:0.638586
G1 X123.596 Y126.895 E.06466
;WIDTH:0.599999
G1 X123.941 Y126.29 E.10105
G1 X124.261 Y125.835 E.13011
G1 X124.289 Y125.769 E.13386
G1 X123.578 Y124.55 E.20759
G1 X123.387 Y124.066 E.23477
G1 X123.394 Y123.707 E.25353
G1 X123.541 Y123.442 E.26936
G1 X123.796 Y123.26 E.28573
G1 X124.136 Y123.182 E.30395
G1 X124.409 Y123.248 E.31862
G1 X124.629 Y123.386 E.33219
G1 X124.976 Y123.823 E.36134
G1 X125.19 Y124.226 E.38518
G1 X125.422 Y123.743 E.41317
G1 X125.788 Y123.347 E.44134
G1 X126.129 Y123.188 E.461
G1 X126.441 Y123.22 E.47739
G1 X126.727 Y123.419 E.49559
G1 X126.877 Y123.675 E.51109
;WIDTH:0.583509
G1 X126.917 Y123.994 E.52738
;WIDTH:0.595569
G1 X126.84 Y124.3 E.54373
;WIDTH:0.599999
G1 X126.281 Y125.25 E.60132
G1 X126.134 Y125.565 E.61948
G1 X126.092 Y125.7 E.62687
G1 X126.185 Y125.99 E.64278
G1 X126.805 Y127.023 E.70572
G1 X126.962 Y127.391 E.72662
G1 X126.993 Y127.666 E.74108
G1 X126.944 Y127.932 E.75521
G1 X126.802 Y128.16 E.76924
G1 X126.528 Y128.336 E.78625
G1 X126.071 Y128.384 E.81026
G1 X125.84 Y128.297 E.82316
G1 X125.664 Y128.149 E.83517
G1 X125.397 Y127.742 E.8606
G1 X125.106 Y127.217 E.89196
G1 X124.834 Y127.752 E.92332
G1 X124.481 Y128.2 E.95312
G1 X124.19 Y128.365 E.9706
G1 X123.836 Y128.352 E.98911
G1 X123.514 Y128.162 E1.00864
;WIDTH:0.638866
G1 X123.452 Y128.094 E1.01379
;WIDTH:0.677733
G1 X123.39 Y128.026 E1.01928
;WIDTH:0.7166
G1 X123.329 Y127.959 E1.02502
;WIDTH:0.755466
G1 X123.267 Y127.891 E1.0312
;WIDTH:0.794952
G1 X123.232 Y127.813 E1.03726
;WIDTH:0.834438
G1 X123.197 Y127.734 E1.04371
;WIDTH:0.873924
G1 X123.163 Y127.656 E1.05038
G1 X123.114 Y127.734 E1.05761
;WIDTH:0.826795
G1 X123.064 Y127.812 E1.06446
;WIDTH:0.779665
G1 X123.015 Y127.89 E1.07085
;WIDTH:0.732535
G1 X122.904 Y128.022 E1.08205
;WIDTH:0.688357
G1 X122.792 Y128.154 E1.09256
;WIDTH:0.644178
G1 X122.681 Y128.286 E1.1023
;WIDTH:0.599999
G1 X122.2 Y128.588 E1.13197
G1 X121.749 Y128.661 E1.15584
G1 X121.29 Y128.568 E1.18031
G1 X120.855 Y128.29 E1.20728
G1 X120.573 Y127.864 E1.23397
;WIDTH:0.616
G1 X120.467 Y127.303 E1.26467
;WIDTH:0.649961
G1 X120.494 Y127.077 E1.27765
;WIDTH:0.683922
G1 X120.52 Y126.851 E1.29136
G1 X120.394 Y127.024 E1.30426
;WIDTH:0.649961
G1 X120.268 Y127.197 E1.31646
;WIDTH:0.616
G1 X119.909 Y127.569 E1.34426
;WIDTH:0.599999
G1 X119.407 Y127.899 E1.37565
G1 X118.908 Y128.072 E1.40324
G1 X118.396 Y128.154 E1.43033
G1 X117.86 Y128.184 E1.45838
G1 X117.144 Y128.177 E1.49579
G1 X116.612 Y128.216 E1.52366
G1 X116.192 Y128.13 E1.54606
G1 X115.915 Y127.807 E1.56829
G1 X115.817 Y127.31 E1.59475
;WIDTH:0.64501
G1 X115.798 Y127.107 E1.60628
;WIDTH:0.690021
G1 X115.779 Y126.905 E1.61863
;WIDTH:0.735032
G1 X115.761 Y126.703 E1.63184
;WIDTH:0.738086
G1 X115.761 Y126.172 E1.66659
G1 X115.785 Y125.869 E1.68648
;WIDTH:0.692057
G1 X115.808 Y125.567 E1.70497
;WIDTH:0.646028
G1 X115.831 Y125.264 E1.72218
;WIDTH:0.599999
G1 X115.834 Y123.053 E1.83769
G1 X115.794 Y122.462 E1.86864
G1 X115.857 Y122.175 E1.88399
G1 X116.06 Y121.925 E1.90081
G1 X116.411 Y121.769 E1.92088
G1 X116.742 Y121.734 E1.93827
G1 X118.329 Y121.77 E2.0212
G1 X118.823 Y121.835 E2.04723
G1 X119.315 Y121.969 E2.07387
G1 X119.708 Y122.169 E2.09691
G1 X120.074 Y122.473 E2.12177
G1 X120.398 Y122.891 E2.1494
G1 X120.59 Y123.23 E2.16975
G1 X120.795 Y123.823 E2.20253
G1 X120.898 Y124.449 E2.23567
G1 X120.905 Y125.357 E2.28311
G1 X120.816 Y125.967 E2.31532
;WIDTH:0.646784
G1 X120.753 Y126.254 E2.33199
;WIDTH:0.693568
G1 X120.69 Y126.54 E2.34991
;WIDTH:0.705332
G1 X120.67 Y126.602 E2.35397
G1 X120.776 Y126.494 E2.3634
;WIDTH:0.676101
G1 X120.882 Y126.386 E2.37241
;WIDTH:0.64687
G1 X121.291 Y126.159 E2.39894
;WIDTH:0.599999
G1 X121.801 Y126.07 E2.42599
G1 X122.289 Y126.177 E2.45209
G1 X122.668 Y126.431 E2.47593
G1 X122.939 Y126.812 E2.50036
;WIDTH:0.64914
G1 X122.984 Y126.906 E2.50629
;WIDTH:0.69828
G1 X123.03 Y126.999 E2.51269
;WIDTH:0.747421
G1 X123.075 Y127.093 E2.5196
;WIDTH:0.796561
G1 X123.12 Y127.187 E2.527
;WIDTH:0.845702
G1 X123.166 Y127.281 E2.53493
;WIDTH:0.894842
G1 X123.172 Y127.293 E2.53601
G1 X123.61 Y126.883 F9000
G1 E2.03601 F240
G92 E0
G1 X120.67 Y126.602 F9000
G1 E.5 F240
;WIDTH:0.705332
G1 F768
G1 X120.539 Y126.822 E.51596
G1 E.01596 F240
G92 E0
G1 X120.539 Y126.822 F9000
G1 X111.614 Y123.512
G1 E.5 F240
;WIDTH:0.595407
G1 F384
G1 X111.598 Y123.516 E.50085
;WIDTH:0.599999
G1 X111.342 Y123.422 E.5151
G1 X111.091 Y123.183 E.53321
G1 X110.943 Y122.873 E.55116
;WIDTH:0.582995
G1 X110.939 Y122.514 E.56933
;WIDTH:0.599999
G1 X111.065 Y122.223 E.5859
G1 X111.445 Y121.895 E.61213
G1 X111.979 Y121.669 E.64242
G1 X112.599 Y121.575 E.67518
G1 X113.254 Y121.605 E.70944
G1 X113.796 Y121.744 E.73867
G1 X114.241 Y122.007 E.76568
G1 X114.578 Y122.421 E.79357
G1 X114.687 Y122.659 E.80725
G1 X114.752 Y122.927 E.82166
G1 X114.734 Y123.652 E.85955
G1 X114.617 Y124.072 E.88233
G1 X114.47 Y124.289 E.89602
G1 X114.235 Y124.513 E.91298
G1 X114.574 Y124.784 E.93565
G1 X114.828 Y125.321 E.96668
;WIDTH:0.648694
G1 X114.91 Y125.568 E.98149
;WIDTH:0.697389
G1 X114.992 Y125.814 E.99745
;WIDTH:0.746084
G1 X115.073 Y126.06 E1.0146
;WIDTH:0.752287
G1 X115.06 Y126.564 E1.04828
G1 X115.007 Y126.678 E1.05668
;WIDTH:0.714215
G1 X114.955 Y126.792 E1.06459
;WIDTH:0.676143
G1 X114.902 Y126.905 E1.07202
;WIDTH:0.638071
G1 X114.849 Y127.019 E1.07905
;WIDTH:0.599999
G1 X114.616 Y127.439 E1.10414
G1 X114.375 Y127.739 E1.12424
G1 X113.97 Y128.047 E1.15082
G1 X113.655 Y128.207 E1.16928
G1 X113.227 Y128.319 E1.19239
G1 X112.837 Y128.355 E1.21285
G1 X112.216 Y128.322 E1.24534
G1 X111.599 Y128.146 E1.27886
G1 X111.2 Y127.862 E1.30445
G1 X111.094 Y127.751 E1.31247
G1 X110.951 Y127.465 E1.32918
G1 X110.905 Y127.185 E1.344
G1 X110.967 Y126.836 E1.36252
G1 X111.16 Y126.574 E1.37952
G1 X111.425 Y126.432 E1.39523
G1 X111.773 Y126.391 E1.41354
G1 X112.221 Y126.511 E1.43777
G1 X112.734 Y126.853 E1.46998
G1 X112.92 Y126.85 E1.4797
G1 X113.174 Y126.695 E1.49525
G1 X113.308 Y126.443 E1.51016
G1 X113.301 Y126.163 E1.52479
G1 X113.181 Y125.898 E1.53999
G1 X112.893 Y125.622 E1.56083
G1 X112.369 Y125.44 E1.58981
G1 X111.881 Y125.311 E1.61618
G1 X111.653 Y125.067 E1.63363
G1 X111.591 Y124.803 E1.6478
G1 X111.657 Y124.367 E1.67084
G1 X111.921 Y124.022 E1.69354
;WIDTH:0.584165
G1 X112.199 Y123.895 E1.70904
;WIDTH:0.618103
G1 X112.473 Y123.814 E1.72446
;WIDTH:0.659854
G1 X112.746 Y123.732 E1.74098
G1 X112.925 Y123.586 E1.75437
;WIDTH:0.657978
G1 X112.992 Y123.351 E1.76849
G1 X112.939 Y123.224 E1.77644
G1 X112.85 Y123.141 E1.78347
G1 X112.612 Y123.13 E1.79724
G1 X112.309 Y123.273 E1.8166
;WIDTH:0.617165
G1 X112.007 Y123.417 E1.83463
;WIDTH:0.595407
G1 X111.701 Y123.491 E1.85094
G1 X111.162 Y123.229 F9000
G1 E1.35094 F240
G92 E0
G1 X108.566 Y123.31 F9000
G1 E.5 F240
;WIDTH:0.599999
G1 F384
G1 X108.526 Y123.477 E.50897
G1 X108.543 Y127.347 E.71115
G1 X108.411 Y127.832 E.73741
G1 X108.188 Y128.076 E.75468
G1 X107.964 Y128.178 E.76754
G1 X107.643 Y128.204 E.78437
G1 X107.299 Y128.104 E.80309
G1 X107.067 Y127.898 E.8193
G1 X106.962 Y127.544 E.83859
G1 X106.999 Y126.926 E.87093
G1 X106.983 Y124.152 E1.01586
G1 X107.015 Y123.616 E1.04391
G1 X106.97 Y123.408 E1.05503
G1 X106.808 Y123.292 E1.06544
G1 X106.5 Y123.275 E1.08156
G1 X105.854 Y123.342 E1.11549
G1 X105.522 Y123.272 E1.13322
G1 X105.31 Y123.12 E1.14685
G1 X105.126 Y122.698 E1.1709
G1 X105.149 Y122.227 E1.19554
G1 X105.357 Y121.911 E1.2153
G1 X105.498 Y121.813 E1.22427
G1 X105.89 Y121.714 E1.24539
G1 X106.487 Y121.756 E1.27666
G1 X109.778 Y121.745 E1.44859
G1 X110.168 Y121.866 E1.46992
G1 X110.379 Y122.129 E1.48754
G1 X110.437 Y122.463 E1.50525
;WIDTH:0.582995
G1 X110.385 Y122.835 E1.52426
;WIDTH:0.599999
G1 X110.248 Y123.057 E1.53789
G1 X109.987 Y123.218 E1.55391
G1 X109.472 Y123.305 E1.5812
G1 X108.641 Y123.292 E1.62462
G1 X108.532 Y123.882 F9000
G1 E1.12462 F240
G92 E0
G1 X99.614 Y125.743 F9000
G1 E.5 F240
;WIDTH:0.992166
G1 F768
G1 X99.59 Y125.017 E.56519
;WIDTH:0.981382
G1 X99.609 Y124.281 E.6305
;WIDTH:0.988766
G1 X99.612 Y124.219 E.63605
G1 E.13605 F240
G92 E0
G1 X99.612 Y124.219 F9000
G1 X135.77 Y128.06
G1 E.5 F240
;WIDTH:0.718836
G1 F768
G1 X135.535 Y128.297 E.52123
G1 X135.42 Y128.443 E.53305
;WIDTH:0.681412
G1 X135.304 Y128.589 E.54424
;WIDTH:0.643988
G1 X134.856 Y129.044 E.58029
;WIDTH:0.599999
G1 X134.294 Y129.527 E.619
G1 X133.73 Y129.964 E.65628
G1 X133.219 Y130.324 E.68894
G1 X132.704 Y130.655 E.72092
G1 X132.061 Y131.027 E.75973
G1 X131.23 Y131.448 E.8084
G1 X130.343 Y131.827 E.85879
G1 X129.428 Y132.147 E.90943
G1 X128.497 Y132.405 E.9599
G1 X127.546 Y132.603 E1.01065
G1 X126.679 Y132.726 E1.0564
G1 X125.778 Y132.799 E1.10363
G1 X124.824 Y132.815 E1.15348
G1 X124.157 Y132.789 E1.18835
G1 X100.93 Y131.374 E2.40406
G1 X100.432 Y131.302 E2.43035
G1 X100.1 Y131.158 E2.44926
G1 X99.802 Y130.917 E2.46928
G1 X99.626 Y130.678 E2.48479
G1 X99.471 Y130.294 E2.50642
G1 X99.416 Y129.867 E2.52891
G1 X99.417 Y126.457 E2.70706
;WIDTH:0.647755
G1 X99.443 Y126.37 E2.71222
;WIDTH:0.695511
G1 X99.468 Y126.282 E2.71783
;WIDTH:0.743267
G1 X99.494 Y126.195 E2.72382
;WIDTH:0.791023
G1 X99.519 Y126.107 E2.73027
;WIDTH:0.838779
G1 X99.545 Y126.02 E2.73709
;WIDTH:0.886535
G1 X99.57 Y125.932 E2.74438
;WIDTH:0.934291
G1 X99.596 Y125.844 E2.75211
;WIDTH:0.982046
G1 X99.621 Y125.757 E2.76015
G1 X99.664 Y125.843 E2.76869
;WIDTH:0.934291
G1 X99.708 Y125.93 E2.7769
;WIDTH:0.886535
G1 X99.751 Y126.016 E2.78456
;WIDTH:0.838779
G1 X99.794 Y126.103 E2.79185
;WIDTH:0.791023
G1 X99.837 Y126.189 E2.79863
;WIDTH:0.743267
G1 X99.88 Y126.276 E2.80503
;WIDTH:0.695511
G1 X99.923 Y126.362 E2.81093
;WIDTH:0.647755
G1 X99.966 Y126.449 E2.81644
;WIDTH:0.599999
G1 X100.171 Y126.941 E2.84429
G1 X100.533 Y127.466 E2.87761
G1 X101.008 Y127.887 E2.91077
G1 X101.672 Y128.217 E2.94951
G1 X102.23 Y128.335 E2.97931
G1 X103.07 Y128.322 E3.0232
G1 X103.669 Y128.16 E3.05562
G1 X104.128 Y127.884 E3.0836
G1 X104.362 Y127.653 E3.10078
G1 X104.572 Y127.32 E3.12135
G1 X104.669 Y126.995 E3.13907
G1 X104.599 Y126.71 E3.1544
G1 X104.386 Y126.447 E3.17208
G1 X104.074 Y126.284 E3.19047
G1 X103.614 Y126.266 E3.21452
G1 X103.345 Y126.383 E3.22985
G1 X103.009 Y126.669 E3.2529
G1 X102.706 Y126.742 E3.26918
G1 X102.353 Y126.729 E3.28763
G1 X101.967 Y126.6 E3.30889
G1 X101.693 Y126.344 E3.32848
G1 X101.512 Y126.02 E3.34787
G1 X101.382 Y125.387 E3.38163
G1 X101.386 Y124.495 E3.42823
G1 X101.518 Y123.897 E3.46022
G1 X101.762 Y123.494 E3.48483
G1 X102.186 Y123.231 E3.5109
G1 X102.602 Y123.188 E3.53275
G1 X102.786 Y123.218 E3.54249
G1 X103.45 Y123.594 E3.58236
G1 X103.878 Y123.692 E3.6053
G1 X104.171 Y123.636 E3.62088
G1 X104.505 Y123.339 E3.64423
G1 X104.623 Y123.002 E3.66288
;WIDTH:0.587211
G1 X104.619 Y122.791 E3.67365
;WIDTH:0.590248
G1 X104.516 Y122.47 E3.69095
;WIDTH:0.599999
G1 X104.214 Y122.115 E3.7153
G1 X103.725 Y121.797 E3.74577
G1 X103.314 Y121.653 E3.76852
G1 X102.58 Y121.574 E3.80709
G1 X101.988 Y121.631 E3.83816
G1 X101.433 Y121.804 E3.86853
G1 X100.896 Y122.123 E3.90116
G1 X100.45 Y122.564 E3.93393
G1 X100.111 Y123.112 E3.96759
G1 X99.918 Y123.646 E3.99725
;WIDTH:0.648595
G1 X99.88 Y123.718 E4.00188
;WIDTH:0.697191
G1 X99.842 Y123.789 E4.00684
;WIDTH:0.745787
G1 X99.803 Y123.861 E4.01226
;WIDTH:0.794383
G1 X99.765 Y123.933 E4.01803
;WIDTH:0.842979
G1 X99.727 Y124.004 E4.02411
;WIDTH:0.891575
G1 X99.689 Y124.076 E4.03063
;WIDTH:0.940171
G1 X99.651 Y124.148 E4.03753
;WIDTH:0.988766
G1 X99.612 Y124.219 E4.04477
G1 X99.588 Y124.142 E4.05198
;WIDTH:0.940171
G1 X99.564 Y124.064 E4.0589
;WIDTH:0.891575
G1 X99.54 Y123.987 E4.06536
;WIDTH:0.842979
G1 X99.515 Y123.909 E4.07154
;WIDTH:0.794383
G1 X99.491 Y123.832 E4.07725
;WIDTH:0.745787
G1 X99.467 Y123.754 E4.08265
;WIDTH:0.697191
G1 X99.442 Y123.677 E4.08763
;WIDTH:0.648595
G1 X99.418 Y123.599 E4.09227
;WIDTH:0.599999
G1 X99.419 Y120.05 E4.27768
G1 X99.539 Y119.503 E4.30694
G1 X99.736 Y119.163 E4.32747
G1 X100.025 Y118.889 E4.34828
G1 X100.338 Y118.736 E4.36648
G1 X100.797 Y118.634 E4.39104
G1 X124.176 Y117.209 E5.61471
G1 X125.064 Y117.184 E5.66112
G1 X126.12 Y117.221 E5.71632
G1 X126.923 Y117.303 E5.75849
G1 X127.738 Y117.432 E5.8016
G1 X128.818 Y117.677 E5.85946
G1 X129.616 Y117.913 E5.90294
G1 X130.664 Y118.303 E5.96136
G1 X131.512 Y118.688 E6.01001
G1 X132.417 Y119.173 E6.06365
G1 X133.134 Y119.619 E6.10776
G1 X134.042 Y120.273 E6.16622
G1 X134.834 Y120.936 E6.22018
G1 X135.501 Y121.576 E6.26847
G1 X136.107 Y122.236 E6.31528
G1 X136.725 Y123 E6.36662
G1 X137.255 Y123.75 E6.4146
G1 X137.654 Y124.407 E6.45476
G1 X137.814 Y124.746 E6.47434
G1 X137.837 Y125.083 E6.49199
G1 X137.827 Y125.195 E6.49786
G1 X137.659 Y125.589 E6.52024
G1 X136.989 Y126.638 E6.58527
G1 X136.609 Y127.152 E6.61866
;WIDTH:0.601071
G1 X136.19 Y127.667 E6.65341
;WIDTH:0.63758
G1 X136.05 Y127.798 E6.66412
;WIDTH:0.674088
G1 X135.91 Y127.929 E6.6755
;WIDTH:0.710596
G1 X135.77 Y128.06 E6.68754
G1 X135.81 Y127.876 E6.69937
;WIDTH:0.67472
G1 X135.85 Y127.692 E6.71055
;WIDTH:0.638844
G1 X135.83 Y127.539 E6.71918
;WIDTH:0.599999
G1 X135.722 Y127.171 E6.73922
G1 X135.563 Y127 E6.75142
G1 X135.24 Y126.847 E6.77009
G1 X134.722 Y126.784 E6.79735
G1 X134.071 Y126.815 E6.8314
G1 X135.357 Y124.992 E6.94795
G1 X135.677 Y124.438 E6.98137
G1 X135.752 Y124.121 E6.99839
G1 X135.745 Y123.851 E7.0125
G1 X135.6 Y123.48 E7.03331
G1 X135.405 Y123.292 E7.04746
G1 X135.027 Y123.185 E7.06798
G1 X133.041 Y123.18 E7.17174
G1 X132.549 Y123.221 E7.19753
G1 X132.183 Y123.4 E7.21882
;WIDTH:0.638289
G1 X132.114 Y123.471 E7.22435
;WIDTH:0.676578
G1 X132.045 Y123.543 E7.23029
;WIDTH:0.714867
G1 X131.975 Y123.615 E7.23664
;WIDTH:0.753156
G1 X131.906 Y123.686 E7.24326
;WIDTH:0.800029
G1 X131.877 Y123.754 E7.24854
;WIDTH:0.846901
G1 X131.847 Y123.821 E7.25411
;WIDTH:0.893774
G1 X131.818 Y123.888 E7.25998
;WIDTH:0.940646
G1 X131.788 Y123.955 E7.26621
G1 X131.744 Y123.879 E7.27366
;WIDTH:0.890665
G1 X131.699 Y123.803 E7.28073
;WIDTH:0.840683
G1 X131.655 Y123.727 E7.28734
;WIDTH:0.790701
G1 X131.61 Y123.65 E7.29363
;WIDTH:0.740719
G1 X131.465 Y123.522 E7.30634
;WIDTH:0.693813
